; G-Code generated by Simplify3D(R) Version 3.1.0
; Jun 27, 2016 at 10:27:06 AM
; Settings Summary
;   processName,Process1
;   applyToModels,LED 8-1 Mount
;   profileName,FlashForge Creator Pro (modified)
;   profileVersion,2015-05-01 08:00:00
;   baseProfile,
;   printMaterial,ABS
;   printQuality,Medium
;   printExtruders,Right Extruder Only
;   extruderName,Right Extruder,Left Extruder
;   extruderToolheadNumber,0,1
;   extruderDiameter,0.4,0.4
;   extruderAutoWidth,0,0
;   extruderWidth,0.4,0.4
;   extrusionMultiplier,1,1
;   extruderUseRetract,1,1
;   extruderRetractionDistance,1,1
;   extruderExtraRestartDistance,0,0
;   extruderRetractionZLift,0,0
;   extruderRetractionSpeed,1200,1200
;   extruderUseCoasting,0,0
;   extruderCoastingDistance,0.2,0.2
;   extruderUseWipe,0,0
;   extruderWipeDistance,5,5
;   primaryExtruder,0
;   layerHeight,0.2
;   topSolidLayers,3
;   bottomSolidLayers,3
;   perimeterOutlines,2
;   printPerimetersInsideOut,1
;   startPointOption,2
;   startPointOriginX,0
;   startPointOriginY,0
;   startPointOriginZ,300
;   sequentialIslands,0
;   spiralVaseMode,0
;   firstLayerHeightPercentage,90
;   firstLayerWidthPercentage,100
;   firstLayerUnderspeed,0.5
;   useRaft,1
;   raftExtruder,0
;   raftLayers,3
;   raftOffset,3
;   raftSeparationDistance,0.14
;   raftInfill,85
;   disableRaftBaseLayers,0
;   useSkirt,1
;   skirtExtruder,0
;   skirtLayers,1
;   skirtOutlines,2
;   skirtOffset,4
;   usePrimePillar,0
;   primePillarExtruder,999
;   primePillarWidth,12
;   primePillarLocation,7
;   primePillarSpeedMultiplier,1
;   useOozeShield,0
;   oozeShieldExtruder,999
;   oozeShieldOffset,2
;   oozeShieldOutlines,1
;   oozeShieldSidewallShape,1
;   oozeShieldSidewallAngle,30
;   oozeShieldSpeedMultiplier,1
;   infillExtruder,0
;   internalInfillPattern,Rectilinear
;   externalInfillPattern,Rectilinear
;   infillPercentage,65
;   outlineOverlapPercentage,20
;   infillExtrusionWidthPercentage,100
;   minInfillLength,5
;   infillLayerInterval,1
;   infillAngles,45,-45
;   overlapInfillAngles,0
;   generateSupport,0
;   supportExtruder,0
;   supportInfillPercentage,30
;   supportExtraInflation,0
;   denseSupportLayers,0
;   denseSupportInfillPercentage,70
;   supportLayerInterval,1
;   supportHorizontalPartOffset,0.3
;   supportUpperSeparationLayers,1
;   supportLowerSeparationLayers,1
;   supportType,0
;   supportGridSpacing,4
;   maxOverhangAngle,45
;   supportAngles,0
;   temperatureName,Right Extruder,Left Extruder,Heated Build Platform
;   temperatureNumber,0,1,0
;   temperatureSetpointCount,1,1,1
;   temperatureSetpointLayers,1,1,1
;   temperatureSetpointTemperatures,230,0,110
;   temperatureStabilizeAtStartup,0,0,0
;   temperatureHeatedBed,0,0,1
;   temperatureRelayBetweenLayers,0,0,0
;   temperatureRelayBetweenLoops,0,0,0
;   fanLayers,1
;   fanSpeeds,0
;   blipFanToFullPower,0
;   adjustSpeedForCooling,1
;   minSpeedLayerTime,15
;   minCoolingSpeedSlowdown,20
;   increaseFanForCooling,0
;   minFanLayerTime,45
;   maxCoolingFanSpeed,100
;   increaseFanForBridging,1
;   bridgingFanSpeed,100
;   use5D,1
;   relativeEdistances,1
;   allowEaxisZeroing,0
;   independentExtruderAxes,1
;   includeM10123,0
;   stickySupport,1
;   applyToolheadOffsets,0
;   gcodeXoffset,0
;   gcodeYoffset,0
;   gcodeZoffset,0
;   overrideMachineDefinition,1
;   machineTypeOverride,0
;   strokeXoverride,225
;   strokeYoverride,145
;   strokeZoverride,150
;   originOffsetXoverride,112.5
;   originOffsetYoverride,72.5
;   originOffsetZoverride,0
;   homeXdirOverride,1
;   homeYdirOverride,1
;   homeZdirOverride,-1
;   flipXoverride,1
;   flipYoverride,-1
;   flipZoverride,1
;   toolheadOffsets,0,0|34,0|0,0|0,0|0,0|0,0
;   overrideFirmwareConfiguration,1
;   firmwareTypeOverride,MakerBot/Sailfish Firmware
;   GPXconfigOverride,r1d
;   baudRateOverride,115200
;   overridePrinterModels,1
;   printerModelsOverride,FlashForge_CreatorPro.stl
;   startingGcode,; **** Replicator 1 dual start.gcode ****,M73 P0 ; enable build progress,G162 X Y F3000 ; home XY maximum,G161 Z F1200 ; home Z minimum,G92 Z-5 ; set Z to -5,G1 Z0 ; move Z to 0,G161 Z F100 ; home Z slowly,M132 X Y Z A B ; recall home offsets,M135 T0 ; load right extruder offsets,G1 X150 Y-70 Z30 F9000 ; move to wait position right hand side of the table,G130 X20 Y20 Z20 A20 B20 ; lower stepper Vrefs while heating,M126 S[fan_speed_pwm],M140 S[bed0_temperature] T0,M134 T0 ; stabilize bed temperature,M104 S[extruder0_temperature] T0,M133 T0 ; stabilize right extruder temperature,G130 X127 Y127 Z40 A127 B127 ; default stepper Vrefs,G92 A0 B0 ; zero extruders,G1 Z0.4 ; position nozzle,G1 X110 Y-70 E25 F300 ; purge nozzle,G1 X120 Y-70 Z0.15 F1200 ; slow wipe,G1 X110 Y-70 Z0.5 F1200 ; lift,G92 A0 B0 ; zero extruders,M73 P1 ;@body (notify GPX body has started),; **** end of start.gcode ****
;   layerChangeGcode,
;   retractionGcode,
;   toolChangeGcode,
;   endingGcode,; **** Replicator 1 dual end.gcode ****,M73 P100 ; end build progress,G1 Z150 F1000 ; send Z axis to bottom of machine,M140 S0 T0 ; cool down HBP,M104 S0 T0 ; cool down right extruder,M104 S0 T1 ; cool down left extruder,M127 ; stop blower fan,G162 X Y F3000 ; home XY maximum,M18 ; disable stepper,M72 P1 ; play Ta-Da song,; **** end of end.gcode ****
;   exportFileFormat,x3g
;   celebration,0
;   celebrationSong,Random Song
;   postProcessing,
;   defaultSpeed,3600
;   outlineUnderspeed,0.5
;   solidInfillUnderspeed,0.8
;   supportUnderspeed,0.8
;   rapidXYspeed,4200
;   rapidZspeed,1200
;   minBridgingArea,50
;   bridgingExtraInflation,0
;   bridgingExtrusionMultiplier,1
;   bridgingSpeedMultiplier,0.8
;   filamentDiameter,1.75
;   filamentPricePerKg,46
;   filamentDensity,1.25
;   useMinPrintHeight,0
;   minPrintHeight,0
;   useMaxPrintHeight,0
;   maxPrintHeight,0
;   useDiaphragm,0
;   diaphragmLayerInterval,20
;   robustSlicing,1
;   mergeAllIntoSolid,0
;   onlyRetractWhenCrossingOutline,1
;   retractBetweenLayers,1
;   useRetractionMinTravel,0
;   retractionMinTravel,3
;   retractWhileWiping,0
;   onlyWipeOutlines,1
;   avoidCrossingOutline,0
;   maxMovementDetourFactor,3
;   toolChangeRetractionDistance,12
;   toolChangeExtraRestartDistance,-0.5
;   toolChangeRetractionSpeed,600
;   allowThinWallGapFill,1
;   thinWallAllowedOverlapPercentage,10
;   horizontalSizeCompensation,0
G90
M83
; **** Replicator 1 dual start.gcode ****
M73 P0 ; enable build progress
G162 X Y F3000 ; home XY maximum
G161 Z F1200 ; home Z minimum
G92 Z-5 ; set Z to -5
G1 Z0 ; move Z to 0
G161 Z F100 ; home Z slowly
M132 X Y Z A B ; recall home offsets
M135 T0 ; load right extruder offsets
G1 X150 Y-70 Z30 F9000 ; move to wait position right hand side of the table
G130 X20 Y20 Z20 A20 B20 ; lower stepper Vrefs while heating
M127
M140 S110 T0
M134 T0 ; stabilize bed temperature
M104 S230 T0
M133 T0 ; stabilize right extruder temperature
G130 X127 Y127 Z40 A127 B127 ; default stepper Vrefs
G92 A0 B0 ; zero extruders
G1 Z0.4 ; position nozzle
G1 X110 Y-70 E25 F300 ; purge nozzle
G1 X120 Y-70 Z0.15 F1200 ; slow wipe
G1 X110 Y-70 Z0.5 F1200 ; lift
G92 A0 B0 ; zero extruders
M73 P1 ;@body (notify GPX body has started)
; **** end of start.gcode ****
G1 E-1.0000 F1200
G1 Z0.450 F1200
; layer 1, Z = 0.45
M135 T0
; tool H0.500 W0.400
; skirt
G1 X-25.411 Y-21.665 F4200
G1 E1.0000 F360
G1 X37.216 Y-21.665 E5.2074 F1800
G1 X37.332 Y-21.642 E0.0098
G1 X38.911 Y-20.988 E0.1421
G1 X39.009 Y-20.922 E0.0098
G1 X43.147 Y-16.784 E0.4866
G1 X43.213 Y-16.686 E0.0098
G1 X43.867 Y-15.107 E0.1421
G1 X43.890 Y-14.991 E0.0098
G1 X43.890 Y14.991 E2.4930
G1 X43.867 Y15.107 E0.0098
G1 X43.213 Y16.686 E0.1421
G1 X43.147 Y16.784 E0.0098
G1 X39.009 Y20.922 E0.4866
G1 X38.911 Y20.988 E0.0098
G1 X37.332 Y21.642 E0.1421
G1 X37.216 Y21.665 E0.0098
G1 X-25.411 Y21.665 E5.2074
G1 X-25.417 Y21.665 E0.0005
G1 X-25.510 Y21.663 E0.0078
G1 X-25.517 Y21.663 E0.0005
G1 X-25.827 Y21.649 E0.0258
G1 X-25.833 Y21.649 E0.0005
G1 X-25.927 Y21.643 E0.0078
G1 X-25.933 Y21.642 E0.0005
G1 X-26.835 Y21.564 E0.0753
G1 X-26.848 Y21.562 E0.0011
G1 X-27.033 Y21.538 E0.0155
G1 X-27.046 Y21.536 E0.0011
G1 X-27.657 Y21.429 E0.0516
G1 X-27.670 Y21.427 E0.0011
G1 X-27.852 Y21.386 E0.0155
G1 X-27.865 Y21.383 E0.0011
G1 X-28.890 Y21.110 E0.0882
G1 X-28.902 Y21.107 E0.0011
G1 X-29.080 Y21.051 E0.0155
G1 X-29.092 Y21.047 E0.0011
G1 X-29.676 Y20.836 E0.0516
G1 X-29.688 Y20.831 E0.0011
G1 X-29.861 Y20.760 E0.0155
G1 X-29.873 Y20.755 E0.0011
G1 X-30.835 Y20.309 E0.0882
G1 X-30.847 Y20.303 E0.0011
G1 X-31.012 Y20.218 E0.0155
G1 X-31.024 Y20.212 E0.0011
G1 X-31.562 Y19.903 E0.0516
G1 X-31.573 Y19.896 E0.0011
G1 X-31.731 Y19.797 E0.0155
G1 X-31.742 Y19.789 E0.0011
G1 X-32.613 Y19.184 E0.0882
G1 X-32.623 Y19.176 E0.0011
G1 X-32.772 Y19.063 E0.0155
G1 X-32.782 Y19.055 E0.0011
G1 X-33.259 Y18.658 E0.0516
G1 X-33.269 Y18.650 E0.0011
G1 X-33.407 Y18.524 E0.0155
G1 X-33.416 Y18.515 E0.0011
G1 X-34.170 Y17.769 E0.0882
G1 X-34.179 Y17.760 E0.0011
G1 X-34.238 Y17.695 E0.0073
G1 X-34.362 Y17.668 E0.0105
G1 X-34.375 Y17.665 E0.0011
G1 X-35.405 Y17.389 E0.0887
G1 X-35.418 Y17.385 E0.0011
G1 X-35.597 Y17.329 E0.0156
G1 X-35.609 Y17.324 E0.0011
G1 X-36.195 Y17.111 E0.0519
G1 X-36.207 Y17.106 E0.0011
G1 X-36.381 Y17.035 E0.0156
G1 X-36.393 Y17.029 E0.0011
G1 X-37.360 Y16.579 E0.0887
G1 X-37.371 Y16.573 E0.0011
G1 X-37.538 Y16.486 E0.0156
G1 X-37.549 Y16.480 E0.0011
G1 X-38.090 Y16.168 E0.0519
G1 X-38.101 Y16.161 E0.0011
G1 X-38.260 Y16.060 E0.0156
G1 X-38.271 Y16.053 E0.0011
G1 X-39.145 Y15.440 E0.0887
G1 X-39.155 Y15.433 E0.0011
G1 X-39.304 Y15.319 E0.0156
G1 X-39.314 Y15.310 E0.0011
G1 X-39.793 Y14.909 E0.0519
G1 X-39.802 Y14.900 E0.0011
G1 X-39.941 Y14.774 E0.0156
G1 X-39.950 Y14.765 E0.0011
G1 X-40.705 Y14.010 E0.0887
G1 X-40.714 Y14.001 E0.0011
G1 X-40.841 Y13.862 E0.0156
G1 X-40.849 Y13.853 E0.0011
G1 X-41.250 Y13.374 E0.0519
G1 X-41.259 Y13.364 E0.0011
G1 X-41.373 Y13.215 E0.0156
G1 X-41.381 Y13.205 E0.0011
G1 X-41.993 Y12.331 E0.0887
G1 X-42.000 Y12.320 E0.0011
G1 X-42.101 Y12.161 E0.0156
G1 X-42.108 Y12.150 E0.0011
G1 X-42.420 Y11.610 E0.0519
G1 X-42.426 Y11.598 E0.0011
G1 X-42.512 Y11.432 E0.0156
G1 X-42.518 Y11.420 E0.0011
G1 X-42.969 Y10.453 E0.0887
G1 X-42.974 Y10.441 E0.0011
G1 X-43.046 Y10.268 E0.0156
G1 X-43.051 Y10.256 E0.0011
G1 X-43.265 Y9.669 E0.0519
G1 X-43.269 Y9.656 E0.0011
G1 X-43.325 Y9.477 E0.0156
G1 X-43.329 Y9.465 E0.0011
G1 X-43.605 Y8.434 E0.0887
G1 X-43.608 Y8.421 E0.0011
G1 X-43.649 Y8.238 E0.0156
G1 X-43.651 Y8.225 E0.0011
G1 X-43.760 Y7.611 E0.0519
G1 X-43.762 Y7.598 E0.0011
G1 X-43.786 Y7.412 E0.0156
G1 X-43.788 Y7.399 E0.0011
G1 X-43.866 Y6.498 E0.0752
G1 X-43.867 Y6.491 E0.0005
G1 X-43.873 Y6.398 E0.0078
G1 X-43.873 Y6.391 E0.0006
G1 X-43.887 Y6.079 E0.0259
G1 X-43.887 Y6.073 E0.0005
G1 X-43.889 Y5.979 E0.0078
G1 X-43.889 Y5.973 E0.0005
G1 X-43.890 Y-5.966 E0.9927
G1 X-43.890 Y-5.972 E0.0005
G1 X-43.888 Y-6.066 E0.0078
G1 X-43.888 Y-6.073 E0.0005
G1 X-43.874 Y-6.385 E0.0260
G1 X-43.874 Y-6.391 E0.0005
G1 X-43.868 Y-6.485 E0.0078
G1 X-43.867 Y-6.491 E0.0005
G1 X-43.788 Y-7.399 E0.0757
G1 X-43.786 Y-7.412 E0.0011
G1 X-43.762 Y-7.598 E0.0156
G1 X-43.760 Y-7.611 E0.0011
G1 X-43.651 Y-8.225 E0.0519
G1 X-43.649 Y-8.238 E0.0011
G1 X-43.608 Y-8.421 E0.0156
G1 X-43.605 Y-8.434 E0.0011
G1 X-43.329 Y-9.465 E0.0887
G1 X-43.325 Y-9.477 E0.0011
G1 X-43.269 Y-9.656 E0.0156
G1 X-43.265 Y-9.669 E0.0011
G1 X-43.051 Y-10.256 E0.0519
G1 X-43.046 Y-10.268 E0.0011
G1 X-42.974 Y-10.441 E0.0156
G1 X-42.969 Y-10.453 E0.0011
G1 X-42.518 Y-11.420 E0.0887
G1 X-42.512 Y-11.432 E0.0011
G1 X-42.426 Y-11.598 E0.0156
G1 X-42.419 Y-11.610 E0.0011
G1 X-42.107 Y-12.150 E0.0519
G1 X-42.101 Y-12.162 E0.0011
G1 X-42.000 Y-12.320 E0.0156
G1 X-41.992 Y-12.331 E0.0011
G1 X-41.381 Y-13.205 E0.0887
G1 X-41.373 Y-13.215 E0.0011
G1 X-41.259 Y-13.364 E0.0156
G1 X-41.250 Y-13.374 E0.0011
G1 X-40.849 Y-13.852 E0.0519
G1 X-40.841 Y-13.862 E0.0011
G1 X-40.714 Y-14.001 E0.0156
G1 X-40.705 Y-14.010 E0.0011
G1 X-39.950 Y-14.764 E0.0887
G1 X-39.941 Y-14.773 E0.0011
G1 X-39.803 Y-14.900 E0.0156
G1 X-39.793 Y-14.909 E0.0011
G1 X-39.315 Y-15.310 E0.0519
G1 X-39.304 Y-15.318 E0.0011
G1 X-39.155 Y-15.433 E0.0156
G1 X-39.145 Y-15.440 E0.0011
G1 X-38.271 Y-16.053 E0.0887
G1 X-38.260 Y-16.060 E0.0011
G1 X-38.102 Y-16.161 E0.0156
G1 X-38.090 Y-16.168 E0.0011
G1 X-37.549 Y-16.480 E0.0519
G1 X-37.538 Y-16.486 E0.0011
G1 X-37.371 Y-16.573 E0.0156
G1 X-37.360 Y-16.579 E0.0011
G1 X-36.393 Y-17.029 E0.0887
G1 X-36.381 Y-17.035 E0.0011
G1 X-36.207 Y-17.106 E0.0156
G1 X-36.195 Y-17.111 E0.0011
G1 X-35.609 Y-17.324 E0.0519
G1 X-35.597 Y-17.329 E0.0011
G1 X-35.418 Y-17.385 E0.0156
G1 X-35.405 Y-17.389 E0.0011
G1 X-34.375 Y-17.665 E0.0887
G1 X-34.362 Y-17.668 E0.0011
G1 X-34.238 Y-17.695 E0.0105
G1 X-34.179 Y-17.760 E0.0073
G1 X-34.170 Y-17.769 E0.0011
G1 X-33.416 Y-18.515 E0.0882
G1 X-33.407 Y-18.524 E0.0011
G1 X-33.269 Y-18.650 E0.0155
G1 X-33.259 Y-18.658 E0.0011
G1 X-32.782 Y-19.055 E0.0516
G1 X-32.772 Y-19.063 E0.0011
G1 X-32.623 Y-19.176 E0.0155
G1 X-32.613 Y-19.184 E0.0011
G1 X-31.742 Y-19.789 E0.0882
G1 X-31.731 Y-19.797 E0.0011
G1 X-31.573 Y-19.896 E0.0155
G1 X-31.562 Y-19.903 E0.0011
G1 X-31.024 Y-20.212 E0.0516
G1 X-31.012 Y-20.218 E0.0011
G1 X-30.847 Y-20.303 E0.0155
G1 X-30.835 Y-20.309 E0.0011
G1 X-29.873 Y-20.755 E0.0882
G1 X-29.861 Y-20.760 E0.0011
G1 X-29.688 Y-20.831 E0.0155
G1 X-29.676 Y-20.836 E0.0011
G1 X-29.092 Y-21.047 E0.0516
G1 X-29.080 Y-21.051 E0.0011
G1 X-28.902 Y-21.107 E0.0155
G1 X-28.890 Y-21.110 E0.0011
G1 X-27.865 Y-21.383 E0.0882
G1 X-27.852 Y-21.386 E0.0011
G1 X-27.670 Y-21.427 E0.0155
G1 X-27.657 Y-21.429 E0.0011
G1 X-27.046 Y-21.536 E0.0516
G1 X-27.033 Y-21.538 E0.0011
G1 X-26.848 Y-21.562 E0.0155
G1 X-26.835 Y-21.564 E0.0011
G1 X-25.933 Y-21.642 E0.0753
G1 X-25.927 Y-21.643 E0.0005
G1 X-25.833 Y-21.649 E0.0078
G1 X-25.827 Y-21.649 E0.0005
G1 X-25.517 Y-21.663 E0.0258
G1 X-25.510 Y-21.663 E0.0005
G1 X-25.417 Y-21.665 E0.0078
G1 X-25.411 Y-21.665 E0.0005
G1 X-25.408 Y-21.265 F4200
G1 X37.176 Y-21.265 E5.2040 F1800
G1 X37.215 Y-21.257 E0.0033
G1 X38.722 Y-20.633 E0.1356
G1 X38.754 Y-20.611 E0.0033
G1 X42.836 Y-16.529 E0.4800
G1 X42.858 Y-16.497 E0.0033
G1 X43.482 Y-14.990 E0.1356
G1 X43.490 Y-14.951 E0.0033
G1 X43.490 Y14.951 E2.4864
G1 X43.482 Y14.990 E0.0033
G1 X42.858 Y16.497 E0.1356
G1 X42.836 Y16.529 E0.0033
G1 X38.754 Y20.611 E0.4800
G1 X38.722 Y20.633 E0.0033
G1 X37.215 Y21.257 E0.1356
G1 X37.176 Y21.265 E0.0033
G1 X-25.408 Y21.265 E5.2040
G1 X-25.411 Y21.265 E0.0002
G1 X-25.500 Y21.263 E0.0074
G1 X-25.502 Y21.263 E0.0002
G1 X-25.807 Y21.250 E0.0254
G1 X-25.810 Y21.250 E0.0002
G1 X-25.898 Y21.244 E0.0074
G1 X-25.901 Y21.244 E0.0002
G1 X-26.796 Y21.166 E0.0748
G1 X-26.800 Y21.165 E0.0004
G1 X-26.977 Y21.142 E0.0148
G1 X-26.981 Y21.141 E0.0004
G1 X-27.584 Y21.036 E0.0509
G1 X-27.588 Y21.035 E0.0004
G1 X-27.762 Y20.997 E0.0148
G1 X-27.766 Y20.996 E0.0004
G1 X-28.782 Y20.725 E0.0875
G1 X-28.787 Y20.724 E0.0004
G1 X-28.956 Y20.671 E0.0148
G1 X-28.960 Y20.669 E0.0004
G1 X-29.536 Y20.461 E0.0509
G1 X-29.540 Y20.460 E0.0004
G1 X-29.704 Y20.392 E0.0148
G1 X-29.708 Y20.390 E0.0004
G1 X-30.663 Y19.948 E0.0875
G1 X-30.667 Y19.946 E0.0004
G1 X-30.825 Y19.864 E0.0148
G1 X-30.829 Y19.862 E0.0004
G1 X-31.360 Y19.558 E0.0509
G1 X-31.363 Y19.556 E0.0004
G1 X-31.514 Y19.461 E0.0148
G1 X-31.517 Y19.458 E0.0004
G1 X-32.381 Y18.858 E0.0875
G1 X-32.385 Y18.856 E0.0004
G1 X-32.526 Y18.748 E0.0148
G1 X-32.530 Y18.745 E0.0004
G1 X-33.000 Y18.354 E0.0509
G1 X-33.003 Y18.351 E0.0004
G1 X-33.135 Y18.231 E0.0148
G1 X-33.138 Y18.228 E0.0004
G1 X-33.885 Y17.488 E0.0875
G1 X-33.888 Y17.485 E0.0004
G1 X-34.009 Y17.354 E0.0148
G1 X-34.012 Y17.351 E0.0004
G1 X-34.031 Y17.329 E0.0024
G1 X-34.092 Y17.318 E0.0052
G1 X-34.096 Y17.317 E0.0004
G1 X-34.271 Y17.279 E0.0149
G1 X-34.275 Y17.277 E0.0004
G1 X-35.297 Y17.004 E0.0880
G1 X-35.302 Y17.002 E0.0004
G1 X-35.472 Y16.949 E0.0149
G1 X-35.476 Y16.947 E0.0004
G1 X-36.054 Y16.737 E0.0511
G1 X-36.058 Y16.735 E0.0004
G1 X-36.224 Y16.667 E0.0149
G1 X-36.228 Y16.665 E0.0004
