; G-Code generated by Simplify3D(R) Version 3.1.0
; Jun 22, 2016 at 8:45:07 AM
; Settings Summary
;   processName,Color1
;   applyToModels,New Mount Needle holder Assembly Conductive
;   profileName,FlashForge Creator Pro (modified)
;   profileVersion,2015-05-01 08:00:00
;   baseProfile,
;   printMaterial,PLA
;   printQuality,Medium
;   printExtruders,Both Extruders
;   extruderName,Right Extruder,Left Extruder
;   extruderToolheadNumber,0,1
;   extruderDiameter,0.4,0.4
;   extruderAutoWidth,0,0
;   extruderWidth,0.4,0.4
;   extrusionMultiplier,0.9,0.9
;   extruderUseRetract,1,1
;   extruderRetractionDistance,1,1
;   extruderExtraRestartDistance,0,0
;   extruderRetractionZLift,0,0
;   extruderRetractionSpeed,1200,1200
;   extruderUseCoasting,0,0
;   extruderCoastingDistance,0.2,0.2
;   extruderUseWipe,0,0
;   extruderWipeDistance,5,5
;   primaryExtruder,0
;   layerHeight,0.2
;   topSolidLayers,3
;   bottomSolidLayers,3
;   perimeterOutlines,2
;   printPerimetersInsideOut,1
;   startPointOption,2
;   startPointOriginX,0
;   startPointOriginY,0
;   startPointOriginZ,300
;   sequentialIslands,0
;   spiralVaseMode,0
;   firstLayerHeightPercentage,90
;   firstLayerWidthPercentage,100
;   firstLayerUnderspeed,0.5
;   useRaft,1
;   raftExtruder,0
;   raftLayers,3
;   raftOffset,3
;   raftSeparationDistance,0.14
;   raftInfill,85
;   disableRaftBaseLayers,0
;   useSkirt,0
;   skirtExtruder,0
;   skirtLayers,1
;   skirtOutlines,2
;   skirtOffset,4
;   usePrimePillar,0
;   primePillarExtruder,999
;   primePillarWidth,12
;   primePillarLocation,7
;   primePillarSpeedMultiplier,1
;   useOozeShield,1
;   oozeShieldExtruder,999
;   oozeShieldOffset,2
;   oozeShieldOutlines,1
;   oozeShieldSidewallShape,1
;   oozeShieldSidewallAngle,30
;   oozeShieldSpeedMultiplier,1
;   infillExtruder,0
;   internalInfillPattern,Rectilinear
;   externalInfillPattern,Rectilinear
;   infillPercentage,85
;   outlineOverlapPercentage,20
;   infillExtrusionWidthPercentage,100
;   minInfillLength,5
;   infillLayerInterval,1
;   infillAngles,45,-45
;   overlapInfillAngles,0
;   generateSupport,0
;   supportExtruder,0
;   supportInfillPercentage,30
;   supportExtraInflation,0
;   denseSupportLayers,0
;   denseSupportInfillPercentage,70
;   supportLayerInterval,1
;   supportHorizontalPartOffset,0.3
;   supportUpperSeparationLayers,1
;   supportLowerSeparationLayers,1
;   supportType,0
;   supportGridSpacing,4
;   maxOverhangAngle,45
;   supportAngles,0
;   temperatureName,Right Extruder,Left Extruder,Heated Build Platform
;   temperatureNumber,0,1,0
;   temperatureSetpointCount,1,1,1
;   temperatureSetpointLayers,1,1,1
;   temperatureSetpointTemperatures,235,230,60
;   temperatureStabilizeAtStartup,0,0,0
;   temperatureHeatedBed,0,0,1
;   temperatureRelayBetweenLayers,0,0,0
;   temperatureRelayBetweenLoops,0,0,0
;   fanLayers,1,2
;   fanSpeeds,0,100
;   blipFanToFullPower,0
;   adjustSpeedForCooling,1
;   minSpeedLayerTime,15
;   minCoolingSpeedSlowdown,20
;   increaseFanForCooling,0
;   minFanLayerTime,45
;   maxCoolingFanSpeed,100
;   increaseFanForBridging,1
;   bridgingFanSpeed,100
;   use5D,1
;   relativeEdistances,1
;   allowEaxisZeroing,0
;   independentExtruderAxes,1
;   includeM10123,0
;   stickySupport,1
;   applyToolheadOffsets,0
;   gcodeXoffset,0
;   gcodeYoffset,0
;   gcodeZoffset,0
;   overrideMachineDefinition,1
;   machineTypeOverride,0
;   strokeXoverride,225
;   strokeYoverride,145
;   strokeZoverride,150
;   originOffsetXoverride,112.5
;   originOffsetYoverride,72.5
;   originOffsetZoverride,0
;   homeXdirOverride,1
;   homeYdirOverride,1
;   homeZdirOverride,-1
;   flipXoverride,1
;   flipYoverride,-1
;   flipZoverride,1
;   toolheadOffsets,0,0|34,0|0,0|0,0|0,0|0,0
;   overrideFirmwareConfiguration,1
;   firmwareTypeOverride,MakerBot/Sailfish Firmware
;   GPXconfigOverride,r1d
;   baudRateOverride,115200
;   overridePrinterModels,1
;   printerModelsOverride,FlashForge_CreatorPro.stl
;   startingGcode,; **** Replicator 1 dual start.gcode ****,M73 P0 ; enable build progress,G162 X Y F3000 ; home XY maximum,G161 Z F1200 ; home Z minimum,G92 Z-5 ; set Z to -5,G1 Z0 ; move Z to 0,G161 Z F100 ; home Z slowly,M132 X Y Z A B ; recall home offsets,M135 T0 ; load right extruder offsets,G1 X150 Y-70 Z30 F9000 ; move to wait position right hand side of the table,G130 X20 Y20 Z20 A20 B20 ; lower stepper Vrefs while heating,M126 S[fan_speed_pwm],M140 S[bed0_temperature] T0,M134 T0 ; stabilize bed temperature,M104 S[extruder0_temperature] T0,M104 S[extruder1_temperature] T1,M133 T0 ; stabilize right extruder temperature,M133 T1 ; stabilize left extruder temperature,G130 X127 Y127 Z40 A127 B127 ; default stepper Vrefs,G92 A0 B0 ; zero extruders,G1 Z0.4 ; position nozzle,G1 X110 Y-70 E25 F300 ; purge nozzle,M135 T1; left tool,G1 X120 Y-70 E25 F300; purge nozzle,M135 T0; right tool,G1 X120 Y-70 Z0.15 F1200 ; slow wipe,G1 X110 Y-70 Z0.5 F1200 ; lift,G92 A0 B0 ; zero extruders,M73 P1 ;@body (notify GPX body has started),; **** end of start.gcode ****
;   layerChangeGcode,
;   retractionGcode,
;   toolChangeGcode,
;   endingGcode,; **** Replicator 1 dual end.gcode ****,M73 P100 ; end build progress,G1 Z150 F1000 ; send Z axis to bottom of machine,M140 S0 T0 ; cool down HBP,M104 S0 T0 ; cool down right extruder,M104 S0 T1 ; cool down left extruder,M127 ; stop blower fan,G162 X Y F3000 ; home XY maximum,M18 ; disable stepper,M72 P1 ; play Ta-Da song,; **** end of end.gcode ****
;   exportFileFormat,x3g
;   celebration,0
;   celebrationSong,Random Song
;   postProcessing,
;   defaultSpeed,3600
;   outlineUnderspeed,0.5
;   solidInfillUnderspeed,0.8
;   supportUnderspeed,0.8
;   rapidXYspeed,4200
;   rapidZspeed,1200
;   minBridgingArea,50
;   bridgingExtraInflation,0
;   bridgingExtrusionMultiplier,1
;   bridgingSpeedMultiplier,0.8
;   filamentDiameter,1.75
;   filamentPricePerKg,46
;   filamentDensity,1.25
;   useMinPrintHeight,0
;   minPrintHeight,0
;   useMaxPrintHeight,0
;   maxPrintHeight,0
;   useDiaphragm,0
;   diaphragmLayerInterval,20
;   robustSlicing,1
;   mergeAllIntoSolid,0
;   onlyRetractWhenCrossingOutline,1
;   retractBetweenLayers,1
;   useRetractionMinTravel,0
;   retractionMinTravel,3
;   retractWhileWiping,0
;   onlyWipeOutlines,1
;   avoidCrossingOutline,0
;   maxMovementDetourFactor,3
;   toolChangeRetractionDistance,12
;   toolChangeExtraRestartDistance,-0.5
;   toolChangeRetractionSpeed,600
;   allowThinWallGapFill,1
;   thinWallAllowedOverlapPercentage,10
;   horizontalSizeCompensation,0
G90
M83
; **** Replicator 1 dual start.gcode ****
M73 P0 ; enable build progress
G162 X Y F3000 ; home XY maximum
G161 Z F1200 ; home Z minimum
G92 Z-5 ; set Z to -5
G1 Z0 ; move Z to 0
G161 Z F100 ; home Z slowly
M132 X Y Z A B ; recall home offsets
M135 T0 ; load right extruder offsets
G1 X150 Y-70 Z30 F9000 ; move to wait position right hand side of the table
G130 X20 Y20 Z20 A20 B20 ; lower stepper Vrefs while heating
M127
M140 S60 T0
M134 T0 ; stabilize bed temperature
M104 S235 T0
M104 S230 T1
M133 T0 ; stabilize right extruder temperature
M133 T1 ; stabilize left extruder temperature
G130 X127 Y127 Z40 A127 B127 ; default stepper Vrefs
G92 A0 B0 ; zero extruders
G1 Z0.4 ; position nozzle
G1 X110 Y-70 E25 F300 ; purge nozzle
M135 T1; left tool
G1 X120 Y-70 E25 F300; purge nozzle
M135 T0; right tool
G1 X120 Y-70 Z0.15 F1200 ; slow wipe
G1 X110 Y-70 Z0.5 F1200 ; lift
G92 A0 B0 ; zero extruders
M73 P1 ;@body (notify GPX body has started)
; **** end of start.gcode ****
G1 E-1.0000 F1200
G1 Z0.450 F1200
; layer 1, Z = 0.45
M135 T0
; tool H0.500 W0.800
; raft
G1 X-24.915 Y18.665 F4200
G1 E1.0000 F360
G1 X-25.181 Y18.654 E0.0398 F450
G1 X-26.130 Y18.578 E0.1426
G1 X-27.514 Y18.263 E0.2123
G1 X-28.879 Y17.713 E0.2203
G1 X-30.153 Y16.940 E0.2229
G1 X-31.266 Y15.989 E0.2192
G1 X-32.227 Y14.855 E0.2225
G1 X-32.361 Y14.631 E0.0391
G1 X-33.457 Y14.520 E0.1648
G1 X-34.757 Y14.172 E0.2015
G1 X-36.176 Y13.543 E0.2323
G1 X-37.538 Y12.628 E0.2456
G1 X-38.853 Y11.313 E0.2783
G1 X-39.768 Y9.951 E0.2456
G1 X-40.397 Y8.532 E0.2323
G1 X-40.741 Y7.247 E0.1991
G1 X-40.886 Y5.912 E0.2011
G1 X-40.890 Y-5.800 E1.7529
G1 X-40.741 Y-7.276 E0.2220
G1 X-40.307 Y-8.780 E0.2342
G1 X-39.743 Y-9.988 E0.1995
G1 X-38.878 Y-11.276 E0.2323
G1 X-37.771 Y-12.426 E0.2389
G1 X-36.481 Y-13.367 E0.2389
G1 X-35.047 Y-14.069 E0.2389
G1 X-33.516 Y-14.511 E0.2386
G1 X-32.363 Y-14.636 E0.1736
G1 X-32.267 Y-14.802 E0.0287
G1 X-31.291 Y-15.964 E0.2271
G1 X-30.160 Y-16.935 E0.2231
G1 X-28.933 Y-17.682 E0.2151
G1 X-27.814 Y-18.160 E0.1820
G1 X-26.421 Y-18.534 E0.2159
G1 X-25.041 Y-18.665 E0.2074
G1 X31.981 Y-18.665 E8.5346
G1 X33.197 Y-18.566 E0.1826
G1 X34.760 Y-18.179 E0.2410
G1 X36.445 Y-17.393 E0.2783
G1 X37.735 Y-16.452 E0.2390
G1 X38.678 Y-15.510 E0.1996
G1 X39.592 Y-14.256 E0.2322
G1 X40.294 Y-12.822 E0.2389
G1 X40.740 Y-11.276 E0.2408
G1 X40.889 Y-9.808 E0.2209
G1 X40.890 Y9.756 E2.9282
G1 X40.787 Y11.016 E0.1892
G1 X40.325 Y12.739 E0.2669
G1 X39.743 Y13.988 E0.2062
G1 X38.853 Y15.313 E0.2389
G1 X37.538 Y16.628 E0.2783
G1 X36.213 Y17.518 E0.2389
G1 X35.005 Y18.082 E0.1995
G1 X33.501 Y18.516 E0.2342
G1 X32.026 Y18.665 E0.2219
G1 X-24.915 Y18.665 E8.5225
G1 X-30.021 Y-16.000 F4200
G1 X36.998 Y-16.000 E10.0307 F450
G1 X37.213 Y-15.843 E0.0400
G1 X38.068 Y-14.988 E0.1809
G1 X38.904 Y-13.841 E0.2124
G1 X38.966 Y-13.714 E0.0211
G1 X-33.392 Y-13.714 E10.8300
G1 X-34.758 Y-13.320 E0.2128
G1 X-36.066 Y-12.679 E0.2180
G1 X-37.243 Y-11.821 E0.2180
G1 X-37.620 Y-11.429 E0.0815
G1 X39.864 Y-11.429 E11.5971
G1 X39.952 Y-11.124 E0.0475
G1 X40.089 Y-9.767 E0.2041
G1 X40.089 Y-9.143 E0.0935
G1 X-39.254 Y-9.143 E11.8754
G1 X-39.555 Y-8.498 E0.1065
G1 X-39.952 Y-7.124 E0.2141
G1 X-39.979 Y-6.857 E0.0401
G1 X40.090 Y-6.857 E11.9839
G1 X40.090 Y-4.571 E0.3421
G1 X-40.090 Y-4.571 E12.0005
G1 X-40.089 Y-2.286 E0.3421
G1 X40.090 Y-2.286 E12.0003
G1 X40.090 Y0.000 E0.3421
G1 X-40.088 Y0.000 E12.0002
G1 X-40.087 Y2.286 E0.3421
G1 X40.090 Y2.286 E12.0001
G1 X40.090 Y4.571 E0.3421
G1 X-40.086 Y4.571 E12.0000
G1 X-40.086 Y5.868 E0.1941
G1 X-39.978 Y6.857 E0.1489
G1 X40.090 Y6.857 E11.9839
G1 X40.090 Y9.143 E0.3421
G1 X-39.251 Y9.143 E11.8750
G1 X-39.065 Y9.563 E0.0687
G1 X-38.232 Y10.802 E0.2235
G1 X-37.606 Y11.429 E0.1326
G1 X39.848 Y11.429 E11.5926
G1 X39.571 Y12.464 E0.1605
G1 X39.044 Y13.593 E0.1864
G1 X38.963 Y13.714 E0.0218
G1 X-33.373 Y13.714 E10.8266
G1 X-33.312 Y13.731 E0.0095
G1 X-31.882 Y13.876 E0.2152
G1 X-31.575 Y14.387 E0.0893
G1 X-30.697 Y15.422 E0.2031
G1 X-30.021 Y16.000 E0.1331
G1 X37.034 Y16.000 E10.0363
G1 E-1.0000 F1200
; layer 2, Z = 0.95
M126 S255
; raft
G1 X37.538 Y16.628 F4200
G1 Z0.950 F1200
G1 E1.0000 F1200
G1 X36.213 Y17.518 E0.2389 F900
G1 X35.005 Y18.082 E0.1995
G1 X33.501 Y18.516 E0.2342
G1 X32.026 Y18.665 E0.2219
G1 X-24.915 Y18.665 E8.5225
G1 X-25.181 Y18.654 E0.0398
G1 X-26.130 Y18.578 E0.1426
G1 X-27.514 Y18.263 E0.2123
G1 X-28.879 Y17.713 E0.2203
G1 X-30.153 Y16.940 E0.2229
G1 X-31.266 Y15.989 E0.2192
G1 X-32.227 Y14.855 E0.2225
G1 X-32.361 Y14.631 E0.0391
G1 X-33.457 Y14.520 E0.1648
G1 X-34.757 Y14.172 E0.2015
G1 X-36.176 Y13.543 E0.2323
G1 X-37.538 Y12.628 E0.2456
G1 X-38.853 Y11.313 E0.2783
G1 X-39.768 Y9.951 E0.2456
G1 X-40.397 Y8.532 E0.2323
G1 X-40.741 Y7.247 E0.1991
G1 X-40.886 Y5.912 E0.2011
G1 X-40.890 Y-5.800 E1.7529
G1 X-40.741 Y-7.276 E0.2220
G1 X-40.307 Y-8.780 E0.2342
G1 X-39.743 Y-9.988 E0.1995
G1 X-38.878 Y-11.276 E0.2323
G1 X-37.771 Y-12.426 E0.2389
G1 X-36.481 Y-13.367 E0.2389
G1 X-35.047 Y-14.069 E0.2389
G1 X-33.516 Y-14.511 E0.2386
G1 X-32.363 Y-14.636 E0.1736
G1 X-32.267 Y-14.802 E0.0287
G1 X-31.291 Y-15.964 E0.2271
G1 X-30.160 Y-16.935 E0.2231
G1 X-28.933 Y-17.682 E0.2151
G1 X-27.814 Y-18.160 E0.1820
G1 X-26.421 Y-18.534 E0.2159
G1 X-25.041 Y-18.665 E0.2074
G1 X31.981 Y-18.665 E8.5346
G1 X33.197 Y-18.566 E0.1826
G1 X34.760 Y-18.179 E0.2410
G1 X36.445 Y-17.393 E0.2783
G1 X37.735 Y-16.452 E0.2390
G1 X38.678 Y-15.510 E0.1996
G1 X39.592 Y-14.256 E0.2322
G1 X40.294 Y-12.822 E0.2389
G1 X40.740 Y-11.276 E0.2408
G1 X40.889 Y-9.808 E0.2209
G1 X40.890 Y9.756 E2.9282
G1 X40.787 Y11.016 E0.1892
G1 X40.325 Y12.739 E0.2669
G1 X39.743 Y13.988 E0.2062
G1 X38.853 Y15.313 E0.2389
G1 X37.538 Y16.628 E0.2783
G1 X37.034 Y16.000 F4200
G1 X-30.021 Y16.000 E10.0363 F900
G1 X-30.697 Y15.422 E0.1331
G1 X-31.575 Y14.387 E0.2031
G1 X-31.882 Y13.876 E0.0893
G1 X-33.312 Y13.731 E0.2152
G1 X-33.373 Y13.714 E0.0095
G1 X38.963 Y13.714 E10.8266
G1 X39.044 Y13.593 E0.0218
G1 X39.571 Y12.464 E0.1864
G1 X39.848 Y11.429 E0.1605
G1 X-37.606 Y11.429 E11.5926
G1 X-38.232 Y10.802 E0.1326
G1 X-39.065 Y9.563 E0.2235
G1 X-39.251 Y9.143 E0.0687
G1 X40.090 Y9.143 E11.8750
G1 X40.090 Y6.857 E0.3421
G1 X-39.978 Y6.857 E11.9839
G1 X-40.086 Y5.868 E0.1489
G1 X-40.086 Y4.571 E0.1941
G1 X40.090 Y4.571 E12.0000
G1 X40.090 Y2.286 E0.3421
G1 X-40.087 Y2.286 E12.0001
G1 X-40.088 Y0.000 E0.3421
G1 X40.090 Y0.000 E12.0002
G1 X40.090 Y-2.286 E0.3421
G1 X-40.089 Y-2.286 E12.0003
G1 X-40.090 Y-4.571 E0.3421
G1 X40.090 Y-4.571 E12.0005
G1 X40.090 Y-6.857 E0.3421
G1 X-39.979 Y-6.857 E11.9839
G1 X-39.952 Y-7.124 E0.0401
G1 X-39.555 Y-8.498 E0.2141
G1 X-39.254 Y-9.143 E0.1065
G1 X40.089 Y-9.143 E11.8754
G1 X40.089 Y-9.767 E0.0935
G1 X39.952 Y-11.124 E0.2041
G1 X39.864 Y-11.429 E0.0475
G1 X-37.620 Y-11.429 E11.5971
G1 X-37.243 Y-11.821 E0.0815
G1 X-36.066 Y-12.679 E0.2180
G1 X-34.758 Y-13.320 E0.2180
G1 X-33.392 Y-13.714 E0.2128
G1 X38.966 Y-13.714 E10.8300
G1 X38.904 Y-13.841 E0.0211
G1 X38.068 Y-14.988 E0.2124
G1 X37.213 Y-15.843 E0.1809
G1 X36.998 Y-16.000 E0.0400
G1 X-30.021 Y-16.000 E10.0307
G1 E-1.0000 F1200
; layer 3, Z = 1.32647
; tool H0.376 W0.640
; raft
G1 X-40.960 Y5.967 F4200
G1 Z1.326 F1200
G1 E1.0000 F1200
G1 X-40.960 Y-5.904 E1.0702 F1800
G1 X-40.819 Y-7.291 E0.1257
G1 X-40.382 Y-8.808 E0.1423
G1 X-39.813 Y-10.027 E0.1213
G1 X-39.680 Y-10.225 E0.0215
G1 X-39.680 Y10.225 E1.8437
G1 X-38.915 Y11.364 E0.1237
G1 X-38.400 Y11.879 E0.0656
G1 X-38.400 Y-11.888 E2.1427
G1 X-37.824 Y-12.487 E0.0750
G1 X-37.120 Y-13.000 E0.0785
G1 X-37.120 Y13.005 E2.3444
G1 X-36.215 Y13.613 E0.0983
G1 X-35.840 Y13.779 E0.0369
G1 X-35.840 Y-13.770 E2.4837
G1 X-35.076 Y-14.144 E0.0767
G1 X-34.560 Y-14.293 E0.0484
G1 X-34.560 Y14.307 E2.5785
G1 X-33.471 Y14.599 E0.1016
G1 X-33.280 Y14.618 E0.0173
G1 X-33.280 Y-14.617 E2.6357
G1 X-32.412 Y-14.711 E0.0787
G1 X-32.333 Y-14.848 E0.0143
G1 X-32.000 Y-15.245 E0.0467
G1 X-32.000 Y15.246 E2.7489
G1 X-31.323 Y16.045 E0.0944
G1 X-30.720 Y16.561 E0.0715
G1 X-30.720 Y-16.560 E2.9859
G1 X-30.207 Y-17.000 E0.0609
G1 X-29.440 Y-17.467 E0.0810
G1 X-29.440 Y17.466 E3.1494
G1 X-28.915 Y17.784 E0.0553
G1 X-28.160 Y18.089 E0.0734
G1 X-28.160 Y-18.099 E3.2625
G1 X-27.840 Y-18.236 E0.0314
G1 X-26.880 Y-18.493 E0.0896
G1 X-26.880 Y18.489 E3.3341
G1 X-26.143 Y18.657 E0.0682
G1 X-25.600 Y18.701 E0.0491
G1 X-25.600 Y-18.692 E3.3711
G1 X-25.045 Y-18.745 E0.0503
G1 X-24.320 Y-18.745 E0.0654
G1 X-24.320 Y18.745 E3.3799
G1 X-23.040 Y18.745 E0.1154
G1 X-23.040 Y-18.745 E3.3799
G1 X-21.760 Y-18.745 E0.1154
G1 X-21.760 Y18.745 E3.3799
G1 X-20.480 Y18.745 E0.1154
G1 X-20.480 Y-18.745 E3.3799
G1 X-19.200 Y-18.745 E0.1154
G1 X-19.200 Y18.745 E3.3799
G1 X-17.920 Y18.745 E0.1154
G1 X-17.920 Y-18.745 E3.3799
G1 X-16.640 Y-18.745 E0.1154
G1 X-16.640 Y18.745 E3.3799
G1 X-15.360 Y18.745 E0.1154
G1 X-15.360 Y-18.745 E3.3799
G1 X-14.080 Y-18.745 E0.1154
G1 X-14.080 Y18.745 E3.3799
G1 X-12.800 Y18.745 E0.1154
G1 X-12.800 Y-18.745 E3.3799
G1 X-11.520 Y-18.745 E0.1154
G1 X-11.520 Y18.745 E3.3799
G1 X-10.240 Y18.745 E0.1154
G1 X-10.240 Y-18.745 E3.3799
G1 X-8.960 Y-18.745 E0.1154
G1 X-8.960 Y18.745 E3.3799
G1 X-7.680 Y18.745 E0.1154
G1 X-7.680 Y-18.745 E3.3799
G1 X-6.400 Y-18.745 E0.1154
G1 X-6.400 Y18.745 E3.3799
G1 X-5.120 Y18.745 E0.1154
G1 X-5.120 Y-18.745 E3.3799
G1 X-3.840 Y-18.745 E0.1154
G1 X-3.840 Y18.745 E3.3799
G1 X-2.560 Y18.745 E0.1154
G1 X-2.560 Y-18.745 E3.3799
G1 X-1.280 Y-18.745 E0.1154
G1 X-1.280 Y18.745 E3.3799
G1 X0.000 Y18.745 E0.1154
G1 X0.000 Y-18.745 E3.3799
G1 X1.280 Y-18.745 E0.1154
