; G-Code generated by Simplify3D(R) Version 3.1.0
; Jun 27, 2016 at 11:41:29 AM
; Settings Summary
;   processName,Process1
;   applyToModels,Stand-Offs,Stand-Offs(2),Stand-Offs(3),Stand-Offs(4)
;   profileName,FlashForge Creator Pro (modified)
;   profileVersion,2015-05-01 08:00:00
;   baseProfile,
;   printMaterial,ABS
;   printQuality,Medium
;   printExtruders,Right Extruder Only
;   extruderName,Right Extruder,Left Extruder
;   extruderToolheadNumber,0,1
;   extruderDiameter,0.4,0.4
;   extruderAutoWidth,0,0
;   extruderWidth,0.4,0.4
;   extrusionMultiplier,1,1
;   extruderUseRetract,1,1
;   extruderRetractionDistance,1,1
;   extruderExtraRestartDistance,0,0
;   extruderRetractionZLift,0,0
;   extruderRetractionSpeed,1200,1200
;   extruderUseCoasting,0,0
;   extruderCoastingDistance,0.2,0.2
;   extruderUseWipe,0,0
;   extruderWipeDistance,5,5
;   primaryExtruder,0
;   layerHeight,0.2
;   topSolidLayers,3
;   bottomSolidLayers,3
;   perimeterOutlines,2
;   printPerimetersInsideOut,1
;   startPointOption,2
;   startPointOriginX,0
;   startPointOriginY,0
;   startPointOriginZ,300
;   sequentialIslands,0
;   spiralVaseMode,0
;   firstLayerHeightPercentage,90
;   firstLayerWidthPercentage,100
;   firstLayerUnderspeed,0.5
;   useRaft,1
;   raftExtruder,0
;   raftLayers,3
;   raftOffset,3
;   raftSeparationDistance,0.14
;   raftInfill,85
;   disableRaftBaseLayers,0
;   useSkirt,1
;   skirtExtruder,0
;   skirtLayers,1
;   skirtOutlines,2
;   skirtOffset,4
;   usePrimePillar,0
;   primePillarExtruder,999
;   primePillarWidth,12
;   primePillarLocation,7
;   primePillarSpeedMultiplier,1
;   useOozeShield,0
;   oozeShieldExtruder,999
;   oozeShieldOffset,2
;   oozeShieldOutlines,1
;   oozeShieldSidewallShape,1
;   oozeShieldSidewallAngle,30
;   oozeShieldSpeedMultiplier,1
;   infillExtruder,0
;   internalInfillPattern,Rectilinear
;   externalInfillPattern,Rectilinear
;   infillPercentage,65
;   outlineOverlapPercentage,20
;   infillExtrusionWidthPercentage,100
;   minInfillLength,5
;   infillLayerInterval,1
;   infillAngles,45,-45
;   overlapInfillAngles,0
;   generateSupport,0
;   supportExtruder,0
;   supportInfillPercentage,30
;   supportExtraInflation,0
;   denseSupportLayers,0
;   denseSupportInfillPercentage,70
;   supportLayerInterval,1
;   supportHorizontalPartOffset,0.3
;   supportUpperSeparationLayers,1
;   supportLowerSeparationLayers,1
;   supportType,0
;   supportGridSpacing,4
;   maxOverhangAngle,45
;   supportAngles,0
;   temperatureName,Right Extruder,Left Extruder,Heated Build Platform
;   temperatureNumber,0,1,0
;   temperatureSetpointCount,1,1,1
;   temperatureSetpointLayers,1,1,1
;   temperatureSetpointTemperatures,230,0,110
;   temperatureStabilizeAtStartup,0,0,0
;   temperatureHeatedBed,0,0,1
;   temperatureRelayBetweenLayers,0,0,0
;   temperatureRelayBetweenLoops,0,0,0
;   fanLayers,1
;   fanSpeeds,0
;   blipFanToFullPower,0
;   adjustSpeedForCooling,1
;   minSpeedLayerTime,15
;   minCoolingSpeedSlowdown,20
;   increaseFanForCooling,0
;   minFanLayerTime,45
;   maxCoolingFanSpeed,100
;   increaseFanForBridging,1
;   bridgingFanSpeed,100
;   use5D,1
;   relativeEdistances,1
;   allowEaxisZeroing,0
;   independentExtruderAxes,1
;   includeM10123,0
;   stickySupport,1
;   applyToolheadOffsets,0
;   gcodeXoffset,0
;   gcodeYoffset,0
;   gcodeZoffset,0
;   overrideMachineDefinition,1
;   machineTypeOverride,0
;   strokeXoverride,225
;   strokeYoverride,145
;   strokeZoverride,150
;   originOffsetXoverride,112.5
;   originOffsetYoverride,72.5
;   originOffsetZoverride,0
;   homeXdirOverride,1
;   homeYdirOverride,1
;   homeZdirOverride,-1
;   flipXoverride,1
;   flipYoverride,-1
;   flipZoverride,1
;   toolheadOffsets,0,0|34,0|0,0|0,0|0,0|0,0
;   overrideFirmwareConfiguration,1
;   firmwareTypeOverride,MakerBot/Sailfish Firmware
;   GPXconfigOverride,r1d
;   baudRateOverride,115200
;   overridePrinterModels,1
;   printerModelsOverride,FlashForge_CreatorPro.stl
;   startingGcode,; **** Replicator 1 dual start.gcode ****,M73 P0 ; enable build progress,G162 X Y F3000 ; home XY maximum,G161 Z F1200 ; home Z minimum,G92 Z-5 ; set Z to -5,G1 Z0 ; move Z to 0,G161 Z F100 ; home Z slowly,M132 X Y Z A B ; recall home offsets,M135 T0 ; load right extruder offsets,G1 X150 Y-70 Z30 F9000 ; move to wait position right hand side of the table,G130 X20 Y20 Z20 A20 B20 ; lower stepper Vrefs while heating,M126 S[fan_speed_pwm],M140 S[bed0_temperature] T0,M134 T0 ; stabilize bed temperature,M104 S[extruder0_temperature] T0,M133 T0 ; stabilize right extruder temperature,G130 X127 Y127 Z40 A127 B127 ; default stepper Vrefs,G92 A0 B0 ; zero extruders,G1 Z0.4 ; position nozzle,G1 X110 Y-70 E25 F300 ; purge nozzle,G1 X120 Y-70 Z0.15 F1200 ; slow wipe,G1 X110 Y-70 Z0.5 F1200 ; lift,G92 A0 B0 ; zero extruders,M73 P1 ;@body (notify GPX body has started),; **** end of start.gcode ****
;   layerChangeGcode,
;   retractionGcode,
;   toolChangeGcode,
;   endingGcode,; **** Replicator 1 dual end.gcode ****,M73 P100 ; end build progress,G1 Z150 F1000 ; send Z axis to bottom of machine,M140 S0 T0 ; cool down HBP,M104 S0 T0 ; cool down right extruder,M104 S0 T1 ; cool down left extruder,M127 ; stop blower fan,G162 X Y F3000 ; home XY maximum,M18 ; disable stepper,M72 P1 ; play Ta-Da song,; **** end of end.gcode ****
;   exportFileFormat,x3g
;   celebration,0
;   celebrationSong,Random Song
;   postProcessing,
;   defaultSpeed,3600
;   outlineUnderspeed,0.5
;   solidInfillUnderspeed,0.8
;   supportUnderspeed,0.8
;   rapidXYspeed,4200
;   rapidZspeed,1200
;   minBridgingArea,50
;   bridgingExtraInflation,0
;   bridgingExtrusionMultiplier,1
;   bridgingSpeedMultiplier,0.8
;   filamentDiameter,1.75
;   filamentPricePerKg,46
;   filamentDensity,1.25
;   useMinPrintHeight,0
;   minPrintHeight,0
;   useMaxPrintHeight,0
;   maxPrintHeight,0
;   useDiaphragm,0
;   diaphragmLayerInterval,20
;   robustSlicing,1
;   mergeAllIntoSolid,0
;   onlyRetractWhenCrossingOutline,1
;   retractBetweenLayers,1
;   useRetractionMinTravel,0
;   retractionMinTravel,3
;   retractWhileWiping,0
;   onlyWipeOutlines,1
;   avoidCrossingOutline,0
;   maxMovementDetourFactor,3
;   toolChangeRetractionDistance,12
;   toolChangeExtraRestartDistance,-0.5
;   toolChangeRetractionSpeed,600
;   allowThinWallGapFill,1
;   thinWallAllowedOverlapPercentage,10
;   horizontalSizeCompensation,0
G90
M83
; **** Replicator 1 dual start.gcode ****
M73 P0 ; enable build progress
G162 X Y F3000 ; home XY maximum
G161 Z F1200 ; home Z minimum
G92 Z-5 ; set Z to -5
G1 Z0 ; move Z to 0
G161 Z F100 ; home Z slowly
M132 X Y Z A B ; recall home offsets
M135 T0 ; load right extruder offsets
G1 X150 Y-70 Z30 F9000 ; move to wait position right hand side of the table
G130 X20 Y20 Z20 A20 B20 ; lower stepper Vrefs while heating
M127
M140 S110 T0
M134 T0 ; stabilize bed temperature
M104 S230 T0
M133 T0 ; stabilize right extruder temperature
G130 X127 Y127 Z40 A127 B127 ; default stepper Vrefs
G92 A0 B0 ; zero extruders
G1 Z0.4 ; position nozzle
G1 X110 Y-70 E25 F300 ; purge nozzle
G1 X120 Y-70 Z0.15 F1200 ; slow wipe
G1 X110 Y-70 Z0.5 F1200 ; lift
G92 A0 B0 ; zero extruders
M73 P1 ;@body (notify GPX body has started)
; **** end of start.gcode ****
G1 E-1.0000 F1200
G1 Z0.450 F1200
; layer 1, Z = 0.45
M135 T0
; tool H0.500 W0.400
; skirt
G1 X45.426 Y-32.100 F4200
G1 E1.0000 F360
G1 X45.542 Y-32.077 E0.0098 F1800
G1 X47.121 Y-31.423 E0.1421
G1 X47.219 Y-31.357 E0.0098
G1 X51.357 Y-27.219 E0.4866
G1 X51.423 Y-27.121 E0.0098
G1 X52.077 Y-25.542 E0.1421
G1 X52.100 Y-25.426 E0.0098
G1 X52.100 Y25.426 E4.2283
G1 X52.077 Y25.542 E0.0098
G1 X51.423 Y27.121 E0.1421
G1 X51.357 Y27.219 E0.0098
G1 X47.219 Y31.357 E0.4866
G1 X47.121 Y31.423 E0.0098
G1 X45.542 Y32.077 E0.1421
G1 X45.426 Y32.100 E0.0098
G1 X-45.426 Y32.100 E7.5543
G1 X-45.542 Y32.077 E0.0098
G1 X-47.121 Y31.423 E0.1421
G1 X-47.219 Y31.357 E0.0098
G1 X-51.357 Y27.219 E0.4866
G1 X-51.423 Y27.121 E0.0098
G1 X-52.077 Y25.542 E0.1421
G1 X-52.100 Y25.426 E0.0098
G1 X-52.100 Y-25.426 E4.2283
G1 X-52.077 Y-25.542 E0.0098
G1 X-51.423 Y-27.121 E0.1421
G1 X-51.357 Y-27.219 E0.0098
G1 X-47.219 Y-31.357 E0.4866
G1 X-47.121 Y-31.423 E0.0098
G1 X-45.542 Y-32.077 E0.1421
G1 X-45.426 Y-32.100 E0.0098
G1 X45.426 Y-32.100 E7.5543
G1 X45.386 Y-31.700 F4200
G1 X45.425 Y-31.692 E0.0033 F1800
G1 X46.932 Y-31.068 E0.1356
G1 X46.964 Y-31.046 E0.0033
G1 X51.046 Y-26.964 E0.4800
G1 X51.068 Y-26.932 E0.0033
G1 X51.692 Y-25.425 E0.1356
G1 X51.700 Y-25.386 E0.0033
G1 X51.700 Y25.386 E4.2218
G1 X51.692 Y25.425 E0.0033
G1 X51.068 Y26.932 E0.1356
G1 X51.046 Y26.964 E0.0033
G1 X46.964 Y31.046 E0.4800
G1 X46.932 Y31.068 E0.0033
G1 X45.425 Y31.692 E0.1356
G1 X45.386 Y31.700 E0.0033
G1 X-45.386 Y31.700 E7.5478
G1 X-45.425 Y31.692 E0.0033
G1 X-46.932 Y31.068 E0.1356
G1 X-46.964 Y31.046 E0.0033
G1 X-51.046 Y26.964 E0.4800
G1 X-51.068 Y26.932 E0.0033
G1 X-51.692 Y25.425 E0.1356
G1 X-51.700 Y25.386 E0.0033
G1 X-51.700 Y-25.386 E4.2218
G1 X-51.692 Y-25.425 E0.0033
G1 X-51.068 Y-26.932 E0.1356
G1 X-51.046 Y-26.964 E0.0033
G1 X-46.964 Y-31.046 E0.4800
G1 X-46.932 Y-31.068 E0.0033
G1 X-45.425 Y-31.692 E0.1356
G1 X-45.386 Y-31.700 E0.0033
G1 X45.386 Y-31.700 E7.5478
; tool H0.500 W0.800
; raft
G1 X44.405 Y-27.100 F4200
G1 X47.100 Y-24.405 E0.6337 F450
G1 X47.100 Y-0.595 E3.9597
G1 X46.505 Y0.000 E0.1398
G1 X47.100 Y0.595 E0.1398
G1 X47.100 Y24.405 E3.9597
G1 X44.405 Y27.100 E0.6337
G1 X0.595 Y27.100 E7.2858
G1 X0.000 Y26.505 E0.1398
G1 X-0.595 Y27.100 E0.1398
G1 X-44.405 Y27.100 E7.2858
G1 X-47.100 Y24.405 E0.6337
G1 X-47.100 Y0.595 E3.9597
G1 X-46.505 Y0.000 E0.1398
G1 X-47.100 Y-0.595 E0.1398
G1 X-47.100 Y-24.405 E3.9597
G1 X-44.405 Y-27.100 E0.6337
G1 X-0.595 Y-27.100 E7.2858
G1 X0.000 Y-26.505 E0.1398
G1 X0.595 Y-27.100 E0.1398
G1 X44.405 Y-27.100 E7.2858
G1 X45.231 Y25.143 F4200
G1 X-45.231 Y25.143 E15.0439 F450
G1 X-46.300 Y24.074 E0.2514
G1 X-46.300 Y22.857 E0.2024
G1 X46.300 Y22.857 E15.3994
G1 X46.300 Y20.571 E0.3801
G1 X-46.300 Y20.571 E15.3994
G1 X-46.300 Y18.286 E0.3801
G1 X46.300 Y18.286 E15.3994
G1 X46.300 Y16.000 E0.3801
G1 X-46.300 Y16.000 E15.3994
G1 X-46.300 Y13.714 E0.3801
G1 X46.300 Y13.714 E15.3994
G1 X46.300 Y11.429 E0.3801
G1 X-46.300 Y11.429 E15.3994
G1 X-46.300 Y9.143 E0.3801
G1 X46.300 Y9.143 E15.3994
G1 X46.300 Y6.857 E0.3801
G1 X-46.300 Y6.857 E15.3994
G1 X-46.300 Y4.571 E0.3801
G1 X46.300 Y4.571 E15.3994
G1 X46.300 Y2.286 E0.3801
G1 X-46.300 Y2.286 E15.3994
G1 X-46.300 Y0.926 E0.2261
G1 X-45.374 Y0.000 E0.2178
G1 X45.374 Y0.000 E15.0914
G1 X46.300 Y-0.926 E0.2178
G1 X46.300 Y-2.286 E0.2261
G1 X-46.300 Y-2.286 E15.3994
G1 X-46.300 Y-4.571 E0.3801
G1 X46.300 Y-4.571 E15.3994
G1 X46.300 Y-6.857 E0.3801
G1 X-46.300 Y-6.857 E15.3994
G1 X-46.300 Y-9.143 E0.3801
G1 X46.300 Y-9.143 E15.3994
G1 X46.300 Y-11.429 E0.3801
G1 X-46.300 Y-11.429 E15.3994
G1 X-46.300 Y-13.714 E0.3801
G1 X46.300 Y-13.714 E15.3994
G1 X46.300 Y-16.000 E0.3801
G1 X-46.300 Y-16.000 E15.3994
G1 X-46.300 Y-18.286 E0.3801
G1 X46.300 Y-18.286 E15.3994
G1 X46.300 Y-20.571 E0.3801
G1 X-46.300 Y-20.571 E15.3994
G1 X-46.300 Y-22.857 E0.3801
G1 X46.300 Y-22.857 E15.3994
G1 X46.300 Y-24.074 E0.2024
G1 X45.231 Y-25.143 E0.2514
G1 X-45.231 Y-25.143 E15.0439
G1 E-1.0000 F1200
; layer 2, Z = 0.95
; raft
G1 X-47.100 Y-24.405 F4200
G1 Z0.950 F1200
G1 E1.0000 F1200
G1 X-44.405 Y-27.100 E0.6337 F900
G1 X-0.595 Y-27.100 E7.2858
G1 X0.000 Y-26.505 E0.1398
G1 X0.595 Y-27.100 E0.1398
G1 X44.405 Y-27.100 E7.2858
G1 X47.100 Y-24.405 E0.6337
G1 X47.100 Y-0.595 E3.9597
G1 X46.505 Y0.000 E0.1398
G1 X47.100 Y0.595 E0.1398
G1 X47.100 Y24.405 E3.9597
G1 X44.405 Y27.100 E0.6337
G1 X0.595 Y27.100 E7.2858
G1 X0.000 Y26.505 E0.1398
G1 X-0.595 Y27.100 E0.1398
G1 X-44.405 Y27.100 E7.2858
G1 X-47.100 Y24.405 E0.6337
G1 X-47.100 Y0.595 E3.9597
G1 X-46.505 Y0.000 E0.1398
G1 X-47.100 Y-0.595 E0.1398
G1 X-47.100 Y-24.405 E3.9597
G1 X-45.231 Y-25.143 F4200
G1 X45.231 Y-25.143 E15.0439 F900
G1 X46.300 Y-24.074 E0.2514
G1 X46.300 Y-22.857 E0.2024
G1 X-46.300 Y-22.857 E15.3994
G1 X-46.300 Y-20.571 E0.3801
G1 X46.300 Y-20.571 E15.3994
G1 X46.300 Y-18.286 E0.3801
G1 X-46.300 Y-18.286 E15.3994
G1 X-46.300 Y-16.000 E0.3801
G1 X46.300 Y-16.000 E15.3994
G1 X46.300 Y-13.714 E0.3801
G1 X-46.300 Y-13.714 E15.3994
G1 X-46.300 Y-11.429 E0.3801
G1 X46.300 Y-11.429 E15.3994
G1 X46.300 Y-9.143 E0.3801
G1 X-46.300 Y-9.143 E15.3994
G1 X-46.300 Y-6.857 E0.3801
G1 X46.300 Y-6.857 E15.3994
G1 X46.300 Y-4.571 E0.3801
G1 X-46.300 Y-4.571 E15.3994
G1 X-46.300 Y-2.286 E0.3801
G1 X46.300 Y-2.286 E15.3994
G1 X46.300 Y-0.926 E0.2261
G1 X45.374 Y0.000 E0.2178
G1 X-45.374 Y0.000 E15.0914
G1 X-46.300 Y0.926 E0.2178
G1 X-46.300 Y2.286 E0.2261
G1 X46.300 Y2.286 E15.3994
G1 X46.300 Y4.571 E0.3801
G1 X-46.300 Y4.571 E15.3994
G1 X-46.300 Y6.857 E0.3801
G1 X46.300 Y6.857 E15.3994
G1 X46.300 Y9.143 E0.3801
G1 X-46.300 Y9.143 E15.3994
G1 X-46.300 Y11.429 E0.3801
G1 X46.300 Y11.429 E15.3994
G1 X46.300 Y13.714 E0.3801
G1 X-46.300 Y13.714 E15.3994
G1 X-46.300 Y16.000 E0.3801
G1 X46.300 Y16.000 E15.3994
G1 X46.300 Y18.286 E0.3801
G1 X-46.300 Y18.286 E15.3994
G1 X-46.300 Y20.571 E0.3801
G1 X46.300 Y20.571 E15.3994
G1 X46.300 Y22.857 E0.3801
G1 X-46.300 Y22.857 E15.3994
G1 X-46.300 Y24.074 E0.2024
G1 X-45.231 Y25.143 E0.2514
G1 X45.231 Y25.143 E15.0439
G1 E-1.0000 F1200
; layer 3, Z = 1.32647
; tool H0.376 W0.640
; raft
G1 X46.080 Y-25.538 F4200
G1 Z1.326 F1200
G1 E1.0000 F1200
G1 X46.080 Y25.538 E5.1165 F1800
G1 X44.800 Y26.818 E0.1813
G1 X44.800 Y-26.818 E5.3729
G1 X44.439 Y-27.180 E0.0512
G1 X43.520 Y-27.180 E0.0920
G1 X43.520 Y27.180 E5.4453
G1 X42.240 Y27.180 E0.1282
G1 X42.240 Y-27.180 E5.4453
G1 X40.960 Y-27.180 E0.1282
G1 X40.960 Y27.180 E5.4453
G1 X39.680 Y27.180 E0.1282
G1 X39.680 Y-27.180 E5.4453
G1 X38.400 Y-27.180 E0.1282
G1 X38.400 Y27.180 E5.4453
G1 X37.120 Y27.180 E0.1282
G1 X37.120 Y-27.180 E5.4453
G1 X35.840 Y-27.180 E0.1282
G1 X35.840 Y27.180 E5.4453
G1 X34.560 Y27.180 E0.1282
G1 X34.560 Y-27.180 E5.4453
G1 X33.280 Y-27.180 E0.1282
G1 X33.280 Y27.180 E5.4453
G1 X32.000 Y27.180 E0.1282
G1 X32.000 Y-27.180 E5.4453
G1 X30.720 Y-27.180 E0.1282
G1 X30.720 Y27.180 E5.4453
G1 X29.440 Y27.180 E0.1282
G1 X29.440 Y-27.180 E5.4453
G1 X28.160 Y-27.180 E0.1282
G1 X28.160 Y27.180 E5.4453
G1 X26.880 Y27.180 E0.1282
G1 X26.880 Y-27.180 E5.4453
G1 X25.600 Y-27.180 E0.1282
G1 X25.600 Y27.180 E5.4453
G1 X24.320 Y27.180 E0.1282
G1 X24.320 Y-27.180 E5.4453
G1 X23.040 Y-27.180 E0.1282
G1 X23.040 Y27.180 E5.4453
G1 X21.760 Y27.180 E0.1282
G1 X21.760 Y-27.180 E5.4453
G1 X20.480 Y-27.180 E0.1282
G1 X20.480 Y27.180 E5.4453
G1 X19.200 Y27.180 E0.1282
G1 X19.200 Y-27.180 E5.4453
G1 X17.920 Y-27.180 E0.1282
G1 X17.920 Y27.180 E5.4453
G1 X16.640 Y27.180 E0.1282
G1 X16.640 Y-27.180 E5.4453
G1 X15.360 Y-27.180 E0.1282
G1 X15.360 Y27.180 E5.4453
G1 X14.080 Y27.180 E0.1282
G1 X14.080 Y-27.180 E5.4453
G1 X12.800 Y-27.180 E0.1282
G1 X12.800 Y27.180 E5.4453
G1 X11.520 Y27.180 E0.1282
G1 X11.520 Y-27.180 E5.4453
G1 X10.240 Y-27.180 E0.1282
G1 X10.240 Y27.180 E5.4453
G1 X8.960 Y27.180 E0.1282
G1 X8.960 Y-27.180 E5.4453
G1 X7.680 Y-27.180 E0.1282
G1 X7.680 Y27.180 E5.4453
G1 X6.400 Y27.180 E0.1282
G1 X6.400 Y-27.180 E5.4453
G1 X5.120 Y-27.180 E0.1282
G1 X5.120 Y27.180 E5.4453
G1 X3.840 Y27.180 E0.1282
G1 X3.840 Y-27.180 E5.4453
G1 X2.560 Y-27.180 E0.1282
G1 X2.560 Y27.180 E5.4453
G1 X1.280 Y27.180 E0.1282
G1 X1.280 Y-27.180 E5.4453
G1 X0.561 Y-27.180 E0.0720
G1 X0.000 Y-26.619 E0.0795
G1 X0.000 Y26.619 E5.3328
G1 X-0.561 Y27.180 E0.0795
G1 X-1.280 Y27.180 E0.0720
G1 X-1.280 Y-27.180 E5.4453
G1 X-2.560 Y-27.180 E0.1282
G1 X-2.560 Y27.180 E5.4453
G1 X-3.840 Y27.180 E0.1282
G1 X-3.840 Y-27.180 E5.4453
G1 X-5.120 Y-27.180 E0.1282
G1 X-5.120 Y27.180 E5.4453
G1 X-6.400 Y27.180 E0.1282
G1 X-6.400 Y-27.180 E5.4453
G1 X-7.680 Y-27.180 E0.1282
G1 X-7.680 Y27.180 E5.4453
G1 X-8.960 Y27.180 E0.1282
G1 X-8.960 Y-27.180 E5.4453
G1 X-10.240 Y-27.180 E0.1282
G1 X-10.240 Y27.180 E5.4453
G1 X-11.520 Y27.180 E0.1282
G1 X-11.520 Y-27.180 E5.4453
G1 X-12.800 Y-27.180 E0.1282
G1 X-12.800 Y27.180 E5.4453
