; G-Code generated by Simplify3D(R) Version 3.0.2
; Jan 11, 2016 at 1:46:00 PM
; Settings Summary
;   processName,Process1
;   applyToModels,LM8UU_Bearing_Holder_Fillet_Ends,LM8UU_Bearing_Holder_Fillet_Ends(2)
;   profileName,FlashForge Creator Pro (modified)
;   profileVersion,2015-05-01 08:00:00
;   baseProfile,
;   printMaterial,ABS
;   printQuality,Medium
;   printExtruders,Right Extruder Only
;   extruderName,Right Extruder,Left Extruder
;   extruderToolheadNumber,0,1
;   extruderDiameter,0.4,0.4
;   extruderAutoWidth,0,0
;   extruderWidth,0.4,0.4
;   extrusionMultiplier,1,1
;   extruderUseRetract,1,1
;   extruderRetractionDistance,1,1
;   extruderExtraRestartDistance,0,0
;   extruderRetractionZLift,0,0
;   extruderRetractionSpeed,1200,1200
;   extruderUseCoasting,0,0
;   extruderCoastingDistance,0.2,0.2
;   extruderUseWipe,0,0
;   extruderWipeDistance,5,5
;   primaryExtruder,0
;   layerHeight,0.2
;   topSolidLayers,3
;   bottomSolidLayers,3
;   perimeterOutlines,2
;   printPerimetersInsideOut,1
;   startPointOption,2
;   startPointOriginX,0
;   startPointOriginY,0
;   startPointOriginZ,300
;   sequentialIslands,0
;   spiralVaseMode,0
;   firstLayerHeightPercentage,90
;   firstLayerWidthPercentage,100
;   firstLayerUnderspeed,0.5
;   useRaft,1
;   raftExtruder,0
;   raftLayers,3
;   raftOffset,3
;   raftSeparationDistance,0.14
;   raftInfill,85
;   disableRaftBaseLayers,0
;   useSkirt,1
;   skirtExtruder,0
;   skirtLayers,1
;   skirtOutlines,2
;   skirtOffset,4
;   usePrimePillar,0
;   primePillarExtruder,999
;   primePillarWidth,12
;   primePillarLocation,7
;   primePillarSpeedMultiplier,1
;   useOozeShield,0
;   oozeShieldExtruder,999
;   oozeShieldOffset,2
;   oozeShieldOutlines,1
;   oozeShieldSidewallShape,1
;   oozeShieldSidewallAngle,30
;   oozeShieldSpeedMultiplier,1
;   infillExtruder,0
;   internalInfillPattern,Rectilinear
;   externalInfillPattern,Rectilinear
;   infillPercentage,25
;   outlineOverlapPercentage,20
;   infillExtrusionWidthPercentage,100
;   minInfillLength,5
;   infillLayerInterval,1
;   infillAngles,45,-45
;   overlapInfillAngles,0
;   generateSupport,1
;   supportExtruder,0
;   supportInfillPercentage,30
;   supportExtraInflation,0
;   denseSupportLayers,0
;   denseSupportInfillPercentage,70
;   supportLayerInterval,1
;   supportHorizontalPartOffset,0.3
;   supportUpperSeparationLayers,1
;   supportLowerSeparationLayers,1
;   supportType,0
;   supportGridSpacing,4
;   maxOverhangAngle,45
;   supportAngles,0
;   temperatureName,Right Extruder,Left Extruder,Heated Build Platform
;   temperatureNumber,0,1,0
;   temperatureSetpointCount,1,1,1
;   temperatureSetpointLayers,1,1,1
;   temperatureSetpointTemperatures,234,0,110
;   temperatureStabilizeAtStartup,0,0,0
;   temperatureHeatedBed,0,0,1
;   temperatureRelayBetweenLayers,0,0,0
;   temperatureRelayBetweenLoops,0,0,0
;   fanLayers,1
;   fanSpeeds,0
;   blipFanToFullPower,0
;   adjustSpeedForCooling,1
;   minSpeedLayerTime,15
;   minCoolingSpeedSlowdown,20
;   increaseFanForCooling,0
;   minFanLayerTime,45
;   maxCoolingFanSpeed,100
;   increaseFanForBridging,1
;   bridgingFanSpeed,100
;   use5D,1
;   relativeEdistances,1
;   allowEaxisZeroing,0
;   independentExtruderAxes,1
;   includeM10123,0
;   stickySupport,1
;   applyToolheadOffsets,0
;   gcodeXoffset,0
;   gcodeYoffset,0
;   gcodeZoffset,0
;   overrideMachineDefinition,1
;   machineTypeOverride,0
;   strokeXoverride,225
;   strokeYoverride,145
;   strokeZoverride,150
;   originOffsetXoverride,112.5
;   originOffsetYoverride,72.5
;   originOffsetZoverride,0
;   homeXdirOverride,1
;   homeYdirOverride,1
;   homeZdirOverride,-1
;   flipXoverride,1
;   flipYoverride,-1
;   flipZoverride,1
;   toolheadOffsets,0,0|34,0|0,0|0,0|0,0|0,0
;   overrideFirmwareConfiguration,1
;   firmwareTypeOverride,MakerBot/Sailfish Firmware
;   GPXconfigOverride,r1d
;   baudRateOverride,115200
;   overridePrinterModels,1
;   printerModelsOverride,FlashForge_CreatorPro.stl
;   startingGcode,; **** Replicator 1 dual start.gcode ****,M73 P0 ; enable build progress,G162 X Y F3000 ; home XY maximum,G161 Z F1200 ; home Z minimum,G92 Z-5 ; set Z to -5,G1 Z0 ; move Z to 0,G161 Z F100 ; home Z slowly,M132 X Y Z A B ; recall home offsets,M135 T0 ; load right extruder offsets,G1 X150 Y-70 Z30 F9000 ; move to wait position right hand side of the table,G130 X20 Y20 Z20 A20 B20 ; lower stepper Vrefs while heating,M126 S[fan_speed_pwm],M140 S[bed0_temperature] T0,M134 T0 ; stabilize bed temperature,M104 S[extruder0_temperature] T0,M133 T0 ; stabilize right extruder temperature,G130 X127 Y127 Z40 A127 B127 ; default stepper Vrefs,G92 A0 B0 ; zero extruders,G1 Z0.4 ; position nozzle,G1 X110 Y-70 E25 F300 ; purge nozzle,G1 X120 Y-70 Z0.15 F1200 ; slow wipe,G1 X110 Y-70 Z0.5 F1200 ; lift,G92 A0 B0 ; zero extruders,M73 P1 ;@body (notify GPX body has started),; **** end of start.gcode ****
;   layerChangeGcode,
;   retractionGcode,
;   toolChangeGcode,
;   endingGcode,; **** Replicator 1 dual end.gcode ****,M73 P100 ; end build progress,G1 Z150 F1000 ; send Z axis to bottom of machine,M140 S0 T0 ; cool down HBP,M104 S0 T0 ; cool down right extruder,M104 S0 T1 ; cool down left extruder,M127 ; stop blower fan,G162 X Y F3000 ; home XY maximum,M18 ; disable stepper,M72 P1 ; play Ta-Da song,; **** end of end.gcode ****
;   createX3G,1
;   celebration,0
;   celebrationSong,Random Song
;   createMB5G,0
;   postProcessing,
;   defaultSpeed,3600
;   outlineUnderspeed,0.5
;   solidInfillUnderspeed,0.8
;   supportUnderspeed,0.8
;   rapidXYspeed,4200
;   rapidZspeed,1200
;   minBridgingArea,50
;   bridgingExtraInflation,0
;   bridgingExtrusionMultiplier,1
;   bridgingSpeedMultiplier,0.8
;   filamentDiameter,1.75
;   filamentPricePerKg,46
;   filamentDensity,1.25
;   useMinPrintHeight,0
;   minPrintHeight,0
;   useMaxPrintHeight,0
;   maxPrintHeight,0
;   useDiaphragm,0
;   diaphragmLayerInterval,20
;   robustSlicing,1
;   mergeAllIntoSolid,0
;   onlyRetractWhenCrossingOutline,1
;   retractBetweenLayers,1
;   useRetractionMinTravel,0
;   retractionMinTravel,3
;   retractWhileWiping,0
;   onlyWipeOutlines,1
;   avoidCrossingOutline,0
;   maxMovementDetourFactor,3
;   toolChangeRetractionDistance,12
;   toolChangeExtraRestartDistance,-0.5
;   toolChangeRetractionSpeed,600
;   allowThinWallGapFill,1
;   thinWallAllowedOverlapPercentage,10
;   horizontalSizeCompensation,0
G90
M83
; **** Replicator 1 dual start.gcode ****
M73 P0 ; enable build progress
G162 X Y F3000 ; home XY maximum
G161 Z F1200 ; home Z minimum
G92 Z-5 ; set Z to -5
G1 Z0 ; move Z to 0
G161 Z F100 ; home Z slowly
M132 X Y Z A B ; recall home offsets
M135 T0 ; load right extruder offsets
G1 X150 Y-70 Z30 F9000 ; move to wait position right hand side of the table
G130 X20 Y20 Z20 A20 B20 ; lower stepper Vrefs while heating
M127
M140 S110 T0
M134 T0 ; stabilize bed temperature
M104 S234 T0
M133 T0 ; stabilize right extruder temperature
G130 X127 Y127 Z40 A127 B127 ; default stepper Vrefs
G92 A0 B0 ; zero extruders
G1 Z0.4 ; position nozzle
G1 X110 Y-70 E25 F300 ; purge nozzle
G1 X120 Y-70 Z0.15 F1200 ; slow wipe
G1 X110 Y-70 Z0.5 F1200 ; lift
G92 A0 B0 ; zero extruders
M73 P1 ;@body (notify GPX body has started)
; **** end of start.gcode ****
G1 E-1.0000 F1200
G1 Z0.450 F1200
; layer 1, Z = 0.45
M135 T0
; tool H0.500 W0.400
; skirt
G1 X6.176 Y-1.588 F4200
G1 E1.0000 F360
G1 X6.230 Y-1.772 E0.0160 F1800
G1 X6.233 Y-1.783 E0.0009
G1 X6.281 Y-1.929 E0.0128
G1 X6.285 Y-1.939 E0.0009
G1 X6.962 Y-3.767 E0.1621
G1 X6.966 Y-3.777 E0.0009
G1 X7.024 Y-3.919 E0.0128
G1 X7.028 Y-3.929 E0.0009
G1 X7.240 Y-4.394 E0.0425
G1 X7.244 Y-4.404 E0.0009
G1 X7.313 Y-4.541 E0.0128
G1 X7.318 Y-4.551 E0.0009
G1 X8.248 Y-6.264 E0.1621
G1 X8.253 Y-6.273 E0.0009
G1 X8.332 Y-6.406 E0.0128
G1 X8.337 Y-6.415 E0.0009
G1 X8.613 Y-6.845 E0.0425
G1 X8.618 Y-6.854 E0.0009
G1 X8.706 Y-6.981 E0.0128
G1 X8.712 Y-6.990 E0.0009
G1 X9.877 Y-8.553 E0.1621
G1 X9.884 Y-8.561 E0.0009
G1 X9.980 Y-8.681 E0.0128
G1 X9.987 Y-8.689 E0.0009
G1 X10.321 Y-9.076 E0.0425
G1 X10.328 Y-9.084 E0.0009
G1 X10.432 Y-9.197 E0.0128
G1 X10.440 Y-9.205 E0.0009
G1 X11.816 Y-10.586 E0.1621
G1 X11.823 Y-10.594 E0.0009
G1 X11.936 Y-10.699 E0.0128
G1 X11.944 Y-10.706 E0.0009
G1 X12.330 Y-11.042 E0.0426
G1 X12.338 Y-11.049 E0.0009
G1 X12.458 Y-11.145 E0.0128
G1 X12.467 Y-11.152 E0.0009
G1 X14.027 Y-12.324 E0.1623
G1 X14.036 Y-12.331 E0.0009
G1 X14.162 Y-12.418 E0.0128
G1 X14.171 Y-12.424 E0.0009
G1 X14.600 Y-12.701 E0.0424
G1 X14.609 Y-12.707 E0.0009
G1 X14.740 Y-12.785 E0.0128
G1 X14.750 Y-12.790 E0.0009
G1 X16.457 Y-13.726 E0.1619
G1 X16.466 Y-13.731 E0.0009
G1 X16.604 Y-13.800 E0.0128
G1 X16.613 Y-13.805 E0.0009
G1 X17.078 Y-14.018 E0.0425
G1 X17.088 Y-14.022 E0.0009
G1 X17.230 Y-14.081 E0.0128
G1 X17.239 Y-14.085 E0.0009
G1 X19.065 Y-14.770 E0.1621
G1 X19.075 Y-14.773 E0.0009
G1 X19.221 Y-14.822 E0.0128
G1 X19.231 Y-14.825 E0.0009
G1 X19.721 Y-14.970 E0.0425
G1 X19.732 Y-14.973 E0.0009
G1 X19.880 Y-15.011 E0.0128
G1 X19.891 Y-15.013 E0.0009
G1 X21.795 Y-15.431 E0.1621
G1 X21.806 Y-15.433 E0.0009
G1 X21.957 Y-15.460 E0.0128
G1 X21.968 Y-15.462 E0.0009
G1 X22.473 Y-15.535 E0.0425
G1 X22.484 Y-15.537 E0.0009
G1 X22.637 Y-15.553 E0.0128
G1 X22.647 Y-15.554 E0.0009
G1 X24.592 Y-15.696 E0.1621
G1 X24.602 Y-15.697 E0.0009
G1 X24.756 Y-15.702 E0.0128
G1 X24.767 Y-15.703 E0.0009
G1 X25.278 Y-15.703 E0.0425
G1 X25.289 Y-15.703 E0.0009
G1 X25.442 Y-15.698 E0.0128
G1 X25.453 Y-15.697 E0.0009
G1 X27.398 Y-15.560 E0.1621
G1 X27.408 Y-15.559 E0.0009
G1 X27.561 Y-15.543 E0.0128
G1 X27.572 Y-15.542 E0.0009
G1 X28.078 Y-15.470 E0.0425
G1 X28.088 Y-15.468 E0.0009
G1 X28.240 Y-15.441 E0.0128
G1 X28.250 Y-15.439 E0.0009
G1 X30.156 Y-15.027 E0.1621
G1 X30.166 Y-15.024 E0.0009
G1 X30.315 Y-14.986 E0.0128
G1 X30.325 Y-14.983 E0.0009
G1 X30.816 Y-14.840 E0.0425
G1 X30.826 Y-14.837 E0.0009
G1 X30.972 Y-14.788 E0.0128
G1 X30.982 Y-14.785 E0.0009
G1 X32.809 Y-14.105 E0.1621
G1 X32.819 Y-14.101 E0.0009
G1 X32.961 Y-14.043 E0.0128
G1 X32.971 Y-14.038 E0.0009
G1 X33.436 Y-13.827 E0.0425
G1 X33.446 Y-13.822 E0.0009
G1 X33.583 Y-13.753 E0.0128
G1 X33.593 Y-13.748 E0.0009
G1 X35.305 Y-12.815 E0.1621
G1 X35.314 Y-12.810 E0.0009
G1 X35.446 Y-12.732 E0.0128
G1 X35.456 Y-12.726 E0.0009
G1 X35.886 Y-12.450 E0.0425
G1 X35.895 Y-12.444 E0.0009
G1 X36.021 Y-12.357 E0.0128
G1 X36.030 Y-12.350 E0.0009
G1 X37.591 Y-11.183 E0.1621
G1 X37.600 Y-11.176 E0.0009
G1 X37.720 Y-11.080 E0.0128
G1 X37.728 Y-11.073 E0.0009
G1 X38.115 Y-10.738 E0.0426
G1 X38.123 Y-10.731 E0.0009
G1 X38.236 Y-10.626 E0.0128
G1 X38.244 Y-10.619 E0.0009
G1 X39.624 Y-9.239 E0.1623
G1 X39.632 Y-9.231 E0.0009
G1 X39.736 Y-9.119 E0.0128
G1 X39.743 Y-9.111 E0.0009
G1 X40.078 Y-8.725 E0.0424
G1 X40.085 Y-8.717 E0.0009
G1 X40.181 Y-8.598 E0.0128
G1 X40.188 Y-8.589 E0.0009
G1 X41.355 Y-7.031 E0.1619
G1 X41.361 Y-7.023 E0.0009
G1 X41.449 Y-6.897 E0.0128
G1 X41.455 Y-6.888 E0.0009
G1 X41.731 Y-6.458 E0.0425
G1 X41.737 Y-6.449 E0.0009
G1 X41.815 Y-6.317 E0.0128
G1 X41.821 Y-6.307 E0.0009
G1 X42.756 Y-4.597 E0.1621
G1 X42.761 Y-4.587 E0.0009
G1 X42.829 Y-4.450 E0.0128
G1 X42.834 Y-4.440 E0.0009
G1 X43.047 Y-3.975 E0.0425
G1 X43.051 Y-3.965 E0.0009
G1 X43.110 Y-3.823 E0.0128
G1 X43.114 Y-3.813 E0.0009
G1 X43.795 Y-1.987 E0.1621
G1 X43.799 Y-1.977 E0.0009
G1 X43.847 Y-1.831 E0.0128
G1 X43.851 Y-1.821 E0.0009
G1 X43.919 Y-1.587 E0.0202
G1 X51.572 Y-1.587 E0.6363
G1 X51.688 Y-1.564 E0.0098
G1 X53.267 Y-0.910 E0.1421
G1 X53.366 Y-0.844 E0.0098
G1 X57.503 Y3.293 E0.4866
G1 X57.569 Y3.392 E0.0098
G1 X58.223 Y4.971 E0.1421
G1 X58.246 Y5.087 E0.0098
G1 X58.246 Y16.969 E0.9880
G1 X58.223 Y17.085 E0.0098
G1 X57.569 Y18.664 E0.1421
G1 X57.503 Y18.762 E0.0098
G1 X53.366 Y22.900 E0.4866
G1 X53.267 Y22.966 E0.0098
G1 X51.688 Y23.620 E0.1421
G1 X51.572 Y23.643 E0.0098
G1 X-1.514 Y23.643 E4.4142
G1 X-1.630 Y23.620 E0.0098
G1 X-1.696 Y23.593 E0.0059
G1 X-54.397 Y23.593 E4.3821
G1 X-54.513 Y23.570 E0.0098
G1 X-56.092 Y22.915 E0.1421
G1 X-56.190 Y22.850 E0.0098
G1 X-60.328 Y18.712 E0.4866
G1 X-60.394 Y18.614 E0.0098
G1 X-61.048 Y17.034 E0.1421
G1 X-61.071 Y16.918 E0.0098
G1 X-61.071 Y5.067 E0.9855
G1 X-61.048 Y4.951 E0.0098
G1 X-60.394 Y3.372 E0.1421
G1 X-60.328 Y3.274 E0.0098
G1 X-56.191 Y-0.864 E0.4865
G1 X-56.093 Y-0.930 E0.0098
G1 X-54.514 Y-1.584 E0.1421
G1 X-54.398 Y-1.607 E0.0098
G1 X-46.766 Y-1.608 E0.6346
G1 X-46.722 Y-1.758 E0.0130
G1 X-46.719 Y-1.769 E0.0009
G1 X-46.671 Y-1.915 E0.0128
G1 X-46.667 Y-1.925 E0.0009
G1 X-45.993 Y-3.746 E0.1615
G1 X-45.989 Y-3.756 E0.0009
G1 X-45.930 Y-3.898 E0.0128
G1 X-45.926 Y-3.908 E0.0009
G1 X-45.715 Y-4.373 E0.0425
G1 X-45.710 Y-4.383 E0.0009
G1 X-45.642 Y-4.521 E0.0128
G1 X-45.637 Y-4.530 E0.0009
G1 X-44.710 Y-6.237 E0.1615
G1 X-44.704 Y-6.246 E0.0009
G1 X-44.626 Y-6.379 E0.0128
G1 X-44.621 Y-6.388 E0.0009
G1 X-44.345 Y-6.818 E0.0425
G1 X-44.339 Y-6.827 E0.0009
G1 X-44.252 Y-6.954 E0.0128
G1 X-44.246 Y-6.963 E0.0009
G1 X-43.085 Y-8.520 E0.1615
G1 X-43.078 Y-8.528 E0.0009
G1 X-42.982 Y-8.648 E0.0128
G1 X-42.975 Y-8.656 E0.0009
G1 X-42.642 Y-9.043 E0.0425
G1 X-42.634 Y-9.051 E0.0009
G1 X-42.530 Y-9.164 E0.0128
G1 X-42.522 Y-9.172 E0.0009
G1 X-41.152 Y-10.548 E0.1615
G1 X-41.144 Y-10.555 E0.0009
G1 X-41.032 Y-10.660 E0.0128
G1 X-41.024 Y-10.668 E0.0009
G1 X-40.638 Y-11.003 E0.0425
G1 X-40.630 Y-11.010 E0.0009
G1 X-40.510 Y-11.107 E0.0128
G1 X-40.502 Y-11.113 E0.0009
G1 X-38.949 Y-12.280 E0.1615
G1 X-38.940 Y-12.286 E0.0009
G1 X-38.814 Y-12.374 E0.0128
G1 X-38.806 Y-12.380 E0.0009
G1 X-38.376 Y-12.657 E0.0425
G1 X-38.367 Y-12.663 E0.0009
G1 X-38.235 Y-12.742 E0.0128
G1 X-38.226 Y-12.747 E0.0009
G1 X-36.522 Y-13.681 E0.1615
G1 X-36.513 Y-13.686 E0.0009
G1 X-36.376 Y-13.755 E0.0128
G1 X-36.366 Y-13.759 E0.0009
G1 X-35.901 Y-13.973 E0.0425
G1 X-35.891 Y-13.977 E0.0009
G1 X-35.750 Y-14.036 E0.0128
G1 X-35.740 Y-14.040 E0.0009
G1 X-33.921 Y-14.721 E0.1615
G1 X-33.911 Y-14.725 E0.0009
G1 X-33.765 Y-14.774 E0.0128
G1 X-33.755 Y-14.777 E0.0009
G1 X-33.265 Y-14.922 E0.0425
G1 X-33.254 Y-14.925 E0.0009
G1 X-33.105 Y-14.963 E0.0128
G1 X-33.095 Y-14.965 E0.0009
G1 X-31.198 Y-15.381 E0.1615
G1 X-31.187 Y-15.383 E0.0009
G1 X-31.036 Y-15.411 E0.0128
G1 X-31.025 Y-15.412 E0.0009
G1 X-30.520 Y-15.486 E0.0425
G1 X-30.509 Y-15.487 E0.0009
G1 X-30.356 Y-15.504 E0.0128
G1 X-30.345 Y-15.505 E0.0009
G1 X-28.408 Y-15.646 E0.1615
G1 X-28.398 Y-15.647 E0.0009
G1 X-28.244 Y-15.652 E0.0128
G1 X-28.233 Y-15.652 E0.0009
G1 X-27.722 Y-15.653 E0.0425
G1 X-27.711 Y-15.653 E0.0009
G1 X-27.558 Y-15.648 E0.0128
G1 X-27.547 Y-15.647 E0.0009
G1 X-25.610 Y-15.511 E0.1615
G1 X-25.599 Y-15.510 E0.0009
G1 X-25.446 Y-15.494 E0.0128
G1 X-25.435 Y-15.492 E0.0009
G1 X-24.929 Y-15.420 E0.0425
G1 X-24.919 Y-15.418 E0.0009
G1 X-24.768 Y-15.391 E0.0128
G1 X-24.757 Y-15.389 E0.0009
G1 X-22.859 Y-14.978 E0.1615
G1 X-22.848 Y-14.976 E0.0009
G1 X-22.699 Y-14.938 E0.0128
G1 X-22.689 Y-14.935 E0.0009
G1 X-22.198 Y-14.792 E0.0425
G1 X-22.188 Y-14.789 E0.0009
G1 X-22.042 Y-14.740 E0.0128
G1 X-22.032 Y-14.737 E0.0009
G1 X-20.212 Y-14.060 E0.1615
G1 X-20.202 Y-14.056 E0.0009
G1 X-20.060 Y-13.997 E0.0128
G1 X-20.050 Y-13.993 E0.0009
G1 X-19.585 Y-13.781 E0.0425
G1 X-19.575 Y-13.776 E0.0009
G1 X-19.437 Y-13.708 E0.0128
G1 X-19.428 Y-13.703 E0.0009
G1 X-17.722 Y-12.773 E0.1615
G1 X-17.713 Y-12.768 E0.0009
G1 X-17.581 Y-12.690 E0.0128
G1 X-17.572 Y-12.684 E0.0009
G1 X-17.142 Y-12.408 E0.0425
G1 X-17.133 Y-12.402 E0.0009
G1 X-17.006 Y-12.315 E0.0128
G1 X-16.998 Y-12.308 E0.0009
G1 X-15.442 Y-11.145 E0.1615
G1 X-15.433 Y-11.139 E0.0009
G1 X-15.314 Y-11.043 E0.0128
G1 X-15.305 Y-11.036 E0.0009
G1 X-14.919 Y-10.701 E0.0425
G1 X-14.911 Y-10.694 E0.0009
G1 X-14.798 Y-10.589 E0.0128
G1 X-14.791 Y-10.582 E0.0009
G1 X-13.416 Y-9.209 E0.1615
G1 X-13.409 Y-9.202 E0.0009
G1 X-13.304 Y-9.089 E0.0128
G1 X-13.297 Y-9.081 E0.0009
G1 X-12.962 Y-8.695 E0.0425
G1 X-12.955 Y-8.687 E0.0009
G1 X-12.859 Y-8.567 E0.0128
G1 X-12.852 Y-8.559 E0.0009
G1 X-11.687 Y-7.004 E0.1615
G1 X-11.681 Y-6.996 E0.0009
G1 X-11.593 Y-6.870 E0.0128
G1 X-11.587 Y-6.861 E0.0009
