; G-Code generated by Simplify3D(R) Version 3.0.2
; Jan 12, 2016 at 11:19:00 AM
; Settings Summary
;   processName,Process1
;   applyToModels,NeedleMountBottom_Heated
;   profileName,FlashForge Creator Pro (modified)
;   profileVersion,2015-05-01 08:00:00
;   baseProfile,
;   printMaterial,PLA
;   printQuality,Medium
;   printExtruders,Left Extruder Only
;   extruderName,Right Extruder,Left Extruder
;   extruderToolheadNumber,0,1
;   extruderDiameter,0.4,0.4
;   extruderAutoWidth,0,0
;   extruderWidth,0.4,0.4
;   extrusionMultiplier,0.9,0.9
;   extruderUseRetract,1,1
;   extruderRetractionDistance,1,1
;   extruderExtraRestartDistance,0,0
;   extruderRetractionZLift,0,0
;   extruderRetractionSpeed,1200,1200
;   extruderUseCoasting,0,0
;   extruderCoastingDistance,0.2,0.2
;   extruderUseWipe,0,0
;   extruderWipeDistance,5,5
;   primaryExtruder,1
;   layerHeight,0.2
;   topSolidLayers,3
;   bottomSolidLayers,3
;   perimeterOutlines,2
;   printPerimetersInsideOut,1
;   startPointOption,2
;   startPointOriginX,0
;   startPointOriginY,0
;   startPointOriginZ,300
;   sequentialIslands,0
;   spiralVaseMode,0
;   firstLayerHeightPercentage,90
;   firstLayerWidthPercentage,100
;   firstLayerUnderspeed,0.5
;   useRaft,1
;   raftExtruder,1
;   raftLayers,3
;   raftOffset,3
;   raftSeparationDistance,0.14
;   raftInfill,85
;   disableRaftBaseLayers,0
;   useSkirt,1
;   skirtExtruder,1
;   skirtLayers,1
;   skirtOutlines,2
;   skirtOffset,4
;   usePrimePillar,0
;   primePillarExtruder,999
;   primePillarWidth,12
;   primePillarLocation,7
;   primePillarSpeedMultiplier,1
;   useOozeShield,0
;   oozeShieldExtruder,999
;   oozeShieldOffset,2
;   oozeShieldOutlines,1
;   oozeShieldSidewallShape,1
;   oozeShieldSidewallAngle,30
;   oozeShieldSpeedMultiplier,1
;   infillExtruder,1
;   internalInfillPattern,Rectilinear
;   externalInfillPattern,Rectilinear
;   infillPercentage,15
;   outlineOverlapPercentage,20
;   infillExtrusionWidthPercentage,100
;   minInfillLength,5
;   infillLayerInterval,1
;   infillAngles,45,-45
;   overlapInfillAngles,0
;   generateSupport,0
;   supportExtruder,1
;   supportInfillPercentage,30
;   supportExtraInflation,0
;   denseSupportLayers,0
;   denseSupportInfillPercentage,70
;   supportLayerInterval,1
;   supportHorizontalPartOffset,0.3
;   supportUpperSeparationLayers,1
;   supportLowerSeparationLayers,1
;   supportType,0
;   supportGridSpacing,4
;   maxOverhangAngle,45
;   supportAngles,0
;   temperatureName,Right Extruder,Left Extruder,Heated Build Platform
;   temperatureNumber,0,1,0
;   temperatureSetpointCount,1,1,1
;   temperatureSetpointLayers,1,1,1
;   temperatureSetpointTemperatures,0,225,50
;   temperatureStabilizeAtStartup,0,0,0
;   temperatureHeatedBed,0,0,1
;   temperatureRelayBetweenLayers,0,0,0
;   temperatureRelayBetweenLoops,0,0,0
;   fanLayers,1,2
;   fanSpeeds,0,100
;   blipFanToFullPower,0
;   adjustSpeedForCooling,1
;   minSpeedLayerTime,15
;   minCoolingSpeedSlowdown,20
;   increaseFanForCooling,0
;   minFanLayerTime,45
;   maxCoolingFanSpeed,100
;   increaseFanForBridging,1
;   bridgingFanSpeed,100
;   use5D,1
;   relativeEdistances,1
;   allowEaxisZeroing,0
;   independentExtruderAxes,1
;   includeM10123,0
;   stickySupport,1
;   applyToolheadOffsets,0
;   gcodeXoffset,0
;   gcodeYoffset,0
;   gcodeZoffset,0
;   overrideMachineDefinition,1
;   machineTypeOverride,0
;   strokeXoverride,225
;   strokeYoverride,145
;   strokeZoverride,150
;   originOffsetXoverride,112.5
;   originOffsetYoverride,72.5
;   originOffsetZoverride,0
;   homeXdirOverride,1
;   homeYdirOverride,1
;   homeZdirOverride,-1
;   flipXoverride,1
;   flipYoverride,-1
;   flipZoverride,1
;   toolheadOffsets,0,0|34,0|0,0|0,0|0,0|0,0
;   overrideFirmwareConfiguration,1
;   firmwareTypeOverride,MakerBot/Sailfish Firmware
;   GPXconfigOverride,r1d
;   baudRateOverride,115200
;   overridePrinterModels,1
;   printerModelsOverride,FlashForge_CreatorPro.stl
;   startingGcode,; **** Replicator 1 dual start.gcode ****,M73 P0 ; enable build progress,G162 X Y F3000 ; home XY maximum,G161 Z F1200 ; home Z minimum,G92 Z-5 ; set Z to -5,G1 Z0 ; move Z to 0,G161 Z F100 ; home Z slowly,M132 X Y Z A B ; recall home offsets,M135 T0 ; load right extruder offsets,G1 X150 Y-70 Z30 F9000 ; move to wait position right hand side of the table,G130 X20 Y20 Z20 A20 B20 ; lower stepper Vrefs while heating,M126 S[fan_speed_pwm],M140 S[bed0_temperature] T0,M134 T0 ; stabilize bed temperature,M104 S[extruder1_temperature] T1,M133 T1 ; stabilize left extruder temperature,G130 X127 Y127 Z40 A127 B127 ; default stepper Vrefs,G92 A0 B0 ; zero extruders,G1 Z0.4 ; position nozzle,M135 T1 ; left tool,G1 X110 Y-70 E30 F300 ; move nozzle,G1 X120 Y-70 Z0.15 F1200 ; slow wipe,G1 X110 Y-70 Z0.5 F1200 ; lift,G92 A0 B0 ; zero extruders,M73 P1 ;@body (notify GPX body has started),; **** end of start.gcode ****
;   layerChangeGcode,
;   retractionGcode,
;   toolChangeGcode,
;   endingGcode,; **** Replicator 1 dual end.gcode ****,M73 P100 ; end build progress,G1 Z150 F1000 ; send Z axis to bottom of machine,M140 S0 T0 ; cool down HBP,M104 S0 T0 ; cool down right extruder,M104 S0 T1 ; cool down left extruder,M127 ; stop blower fan,G162 X Y F3000 ; home XY maximum,M18 ; disable stepper,M72 P1 ; play Ta-Da song,; **** end of end.gcode ****
;   createX3G,1
;   celebration,0
;   celebrationSong,Random Song
;   createMB5G,0
;   postProcessing,
;   defaultSpeed,3600
;   outlineUnderspeed,0.5
;   solidInfillUnderspeed,0.8
;   supportUnderspeed,0.8
;   rapidXYspeed,4200
;   rapidZspeed,1200
;   minBridgingArea,50
;   bridgingExtraInflation,0
;   bridgingExtrusionMultiplier,1
;   bridgingSpeedMultiplier,0.8
;   filamentDiameter,1.75
;   filamentPricePerKg,46
;   filamentDensity,1.25
;   useMinPrintHeight,0
;   minPrintHeight,0
;   useMaxPrintHeight,0
;   maxPrintHeight,0
;   useDiaphragm,0
;   diaphragmLayerInterval,20
;   robustSlicing,1
;   mergeAllIntoSolid,0
;   onlyRetractWhenCrossingOutline,1
;   retractBetweenLayers,1
;   useRetractionMinTravel,0
;   retractionMinTravel,3
;   retractWhileWiping,0
;   onlyWipeOutlines,1
;   avoidCrossingOutline,0
;   maxMovementDetourFactor,3
;   toolChangeRetractionDistance,12
;   toolChangeExtraRestartDistance,-0.5
;   toolChangeRetractionSpeed,600
;   allowThinWallGapFill,1
;   thinWallAllowedOverlapPercentage,10
;   horizontalSizeCompensation,0
G90
M83
; **** Replicator 1 dual start.gcode ****
M73 P0 ; enable build progress
G162 X Y F3000 ; home XY maximum
G161 Z F1200 ; home Z minimum
G92 Z-5 ; set Z to -5
G1 Z0 ; move Z to 0
G161 Z F100 ; home Z slowly
M132 X Y Z A B ; recall home offsets
M135 T0 ; load right extruder offsets
G1 X150 Y-70 Z30 F9000 ; move to wait position right hand side of the table
G130 X20 Y20 Z20 A20 B20 ; lower stepper Vrefs while heating
M127
M140 S50 T0
M134 T0 ; stabilize bed temperature
M104 S225 T1
M133 T1 ; stabilize left extruder temperature
G130 X127 Y127 Z40 A127 B127 ; default stepper Vrefs
G92 A0 B0 ; zero extruders
G1 Z0.4 ; position nozzle
M135 T1 ; left tool
G1 X110 Y-70 E30 F300 ; move nozzle
G1 X120 Y-70 Z0.15 F1200 ; slow wipe
G1 X110 Y-70 Z0.5 F1200 ; lift
G92 A0 B0 ; zero extruders
M73 P1 ;@body (notify GPX body has started)
; **** end of start.gcode ****
G1 E-1.0000 F1200
G1 Z0.450 F1200
; layer 1, Z = 0.45
M135 T1
; tool H0.500 W0.400
; skirt
G1 X0.324 Y28.832 F4200
G1 E1.0000 F360
G1 X0.205 Y28.835 E0.0089 F1800
G1 X0.197 Y28.835 E0.0006
G1 X-0.197 Y28.835 E0.0295
G1 X-0.205 Y28.835 E0.0006
G1 X-0.324 Y28.832 E0.0089
G1 X-0.332 Y28.832 E0.0006
G1 X-2.843 Y28.693 E0.1882
G1 X-2.852 Y28.693 E0.0006
G1 X-2.970 Y28.683 E0.0089
G1 X-2.978 Y28.682 E0.0006
G1 X-3.370 Y28.639 E0.0295
G1 X-3.378 Y28.638 E0.0006
G1 X-3.495 Y28.621 E0.0089
G1 X-3.503 Y28.620 E0.0006
G1 X-5.984 Y28.206 E0.1882
G1 X-5.992 Y28.205 E0.0006
G1 X-6.108 Y28.182 E0.0089
G1 X-6.117 Y28.180 E0.0006
G1 X-6.501 Y28.094 E0.0295
G1 X-6.509 Y28.092 E0.0006
G1 X-6.624 Y28.063 E0.0089
G1 X-6.632 Y28.061 E0.0006
G1 X-9.052 Y27.377 E0.1882
G1 X-9.060 Y27.374 E0.0006
G1 X-9.173 Y27.339 E0.0089
G1 X-9.181 Y27.336 E0.0006
G1 X-9.554 Y27.208 E0.0295
G1 X-9.562 Y27.205 E0.0006
G1 X-9.673 Y27.164 E0.0089
G1 X-9.680 Y27.161 E0.0006
G1 X-12.011 Y26.214 E0.1882
G1 X-12.018 Y26.211 E0.0006
G1 X-12.127 Y26.164 E0.0089
G1 X-12.134 Y26.160 E0.0006
G1 X-12.491 Y25.992 E0.0295
G1 X-12.498 Y25.988 E0.0006
G1 X-12.604 Y25.935 E0.0089
G1 X-12.611 Y25.931 E0.0006
G1 X-14.823 Y24.734 E0.1882
G1 X-14.830 Y24.730 E0.0006
G1 X-14.933 Y24.671 E0.0089
G1 X-14.940 Y24.666 E0.0006
G1 X-15.276 Y24.460 E0.0295
G1 X-15.283 Y24.456 E0.0006
G1 X-15.382 Y24.391 E0.0089
G1 X-15.389 Y24.386 E0.0006
G1 X-17.456 Y22.953 E0.1882
G1 X-17.462 Y22.948 E0.0006
G1 X-17.558 Y22.878 E0.0089
G1 X-17.565 Y22.873 E0.0006
G1 X-17.876 Y22.631 E0.0295
G1 X-17.882 Y22.626 E0.0006
G1 X-17.974 Y22.551 E0.0089
G1 X-17.980 Y22.545 E0.0006
G1 X-19.876 Y20.893 E0.1882
G1 X-19.883 Y20.888 E0.0006
G1 X-19.970 Y20.808 E0.0089
G1 X-19.976 Y20.802 E0.0006
G1 X-20.258 Y20.527 E0.0295
G1 X-20.264 Y20.521 E0.0006
G1 X-20.347 Y20.436 E0.0089
G1 X-20.352 Y20.430 E0.0006
G1 X-22.056 Y18.580 E0.1882
G1 X-22.061 Y18.574 E0.0006
G1 X-22.139 Y18.484 E0.0089
G1 X-22.145 Y18.478 E0.0006
G1 X-22.395 Y18.174 E0.0295
G1 X-22.400 Y18.167 E0.0006
G1 X-22.473 Y18.074 E0.0089
G1 X-22.478 Y18.067 E0.0006
G1 X-23.968 Y16.041 E0.1882
G1 X-23.972 Y16.034 E0.0006
G1 X-24.040 Y15.937 E0.0089
G1 X-24.044 Y15.930 E0.0006
G1 X-24.260 Y15.600 E0.0295
G1 X-24.264 Y15.593 E0.0006
G1 X-24.327 Y15.492 E0.0089
G1 X-24.331 Y15.485 E0.0006
G1 X-25.588 Y13.307 E0.1882
G1 X-25.592 Y13.299 E0.0006
G1 X-25.649 Y13.195 E0.0089
G1 X-25.653 Y13.188 E0.0006
G1 X-25.831 Y12.836 E0.0295
G1 X-25.834 Y12.829 E0.0006
G1 X-25.885 Y12.722 E0.0089
G1 X-25.888 Y12.714 E0.0006
G1 X-26.898 Y10.411 E0.1882
G1 X-26.902 Y10.403 E0.0006
G1 X-26.946 Y10.293 E0.0089
G1 X-26.949 Y10.286 E0.0006
G1 X-27.087 Y9.917 E0.0295
G1 X-27.090 Y9.909 E0.0006
G1 X-27.129 Y9.797 E0.0089
G1 X-27.131 Y9.789 E0.0006
G1 X-27.882 Y7.389 E0.1882
G1 X-27.884 Y7.381 E0.0006
G1 X-27.917 Y7.267 E0.0089
G1 X-27.919 Y7.259 E0.0006
G1 X-28.016 Y6.877 E0.0295
G1 X-28.017 Y6.869 E0.0006
G1 X-28.043 Y6.753 E0.0089
G1 X-28.045 Y6.745 E0.0006
G1 X-28.527 Y4.276 E0.1882
G1 X-28.529 Y4.268 E0.0006
G1 X-28.548 Y4.151 E0.0089
G1 X-28.549 Y4.143 E0.0006
G1 X-28.604 Y3.753 E0.0295
G1 X-28.605 Y3.745 E0.0006
G1 X-28.618 Y3.627 E0.0089
G1 X-28.618 Y3.619 E0.0006
G1 X-28.826 Y1.112 E0.1882
G1 X-28.827 Y1.104 E0.0006
G1 X-28.833 Y0.986 E0.0089
G1 X-28.834 Y0.977 E0.0006
G1 X-28.844 Y0.583 E0.0295
G1 X-28.845 Y0.575 E0.0006
G1 X-28.845 Y0.457 E0.0089
G1 X-28.844 Y0.448 E0.0006
G1 X-28.775 Y-2.066 E0.1882
G1 X-28.775 Y-2.074 E0.0006
G1 X-28.768 Y-2.192 E0.0089
G1 X-28.768 Y-2.201 E0.0006
G1 X-28.735 Y-2.593 E0.0295
G1 X-28.734 Y-2.602 E0.0006
G1 X-28.721 Y-2.719 E0.0089
G1 X-28.720 Y-2.728 E0.0006
G1 X-28.375 Y-5.219 E0.1882
G1 X-28.374 Y-5.227 E0.0006
G1 X-28.354 Y-5.344 E0.0089
G1 X-28.353 Y-5.352 E0.0006
G1 X-28.277 Y-5.739 E0.0295
G1 X-28.275 Y-5.747 E0.0006
G1 X-28.249 Y-5.863 E0.0089
G1 X-28.248 Y-5.871 E0.0006
G1 X-27.630 Y-8.309 E0.1882
G1 X-27.628 Y-8.317 E0.0006
G1 X-27.596 Y-8.431 E0.0089
G1 X-27.593 Y-8.439 E0.0006
G1 X-27.476 Y-8.815 E0.0295
G1 X-27.473 Y-8.823 E0.0006
G1 X-27.435 Y-8.935 E0.0089
G1 X-27.432 Y-8.943 E0.0006
G1 X-26.550 Y-11.298 E0.1882
G1 X-26.547 Y-11.306 E0.0006
G1 X-26.502 Y-11.415 E0.0089
G1 X-26.499 Y-11.423 E0.0006
G1 X-26.341 Y-11.784 E0.0295
G1 X-26.337 Y-11.792 E0.0006
G1 X-26.287 Y-11.899 E0.0089
G1 X-26.283 Y-11.906 E0.0006
G1 X-25.148 Y-14.150 E0.1882
G1 X-25.144 Y-14.158 E0.0006
G1 X-25.087 Y-14.262 E0.0089
G1 X-25.083 Y-14.269 E0.0006
G1 X-24.886 Y-14.610 E0.0295
G1 X-24.882 Y-14.617 E0.0006
G1 X-24.820 Y-14.718 E0.0089
G1 X-24.816 Y-14.725 E0.0006
G1 X-23.440 Y-16.831 E0.1882
G1 X-23.435 Y-16.838 E0.0006
G1 X-23.368 Y-16.935 E0.0089
G1 X-23.363 Y-16.942 E0.0006
G1 X-23.130 Y-17.259 E0.0295
G1 X-23.125 Y-17.266 E0.0006
G1 X-23.052 Y-17.360 E0.0089
G1 X-23.047 Y-17.366 E0.0006
G1 X-21.448 Y-19.307 E0.1882
G1 X-21.442 Y-19.314 E0.0006
G1 X-21.365 Y-19.403 E0.0089
G1 X-21.359 Y-19.409 E0.0006
G1 X-21.092 Y-19.699 E0.0295
G1 X-21.086 Y-19.705 E0.0006
G1 X-21.004 Y-19.790 E0.0089
G1 X-20.998 Y-19.796 E0.0006
G1 X-19.195 Y-21.550 E0.1882
G1 X-19.189 Y-21.555 E0.0006
G1 X-19.102 Y-21.636 E0.0089
G1 X-19.096 Y-21.641 E0.0006
G1 X-18.799 Y-21.900 E0.0295
G1 X-18.792 Y-21.905 E0.0006
G1 X-18.701 Y-21.981 E0.0089
G1 X-18.694 Y-21.986 E0.0006
G1 X-16.710 Y-23.531 E0.1882
G1 X-16.703 Y-23.536 E0.0006
G1 X-16.608 Y-23.606 E0.0089
G1 X-16.601 Y-23.611 E0.0006
G1 X-16.277 Y-23.835 E0.0295
G1 X-16.270 Y-23.840 E0.0006
G1 X-16.171 Y-23.905 E0.0089
G1 X-16.164 Y-23.909 E0.0006
G1 X-14.021 Y-25.226 E0.1882
G1 X-14.014 Y-25.230 E0.0006
G1 X-13.912 Y-25.290 E0.0089
G1 X-13.904 Y-25.294 E0.0006
G1 X-13.558 Y-25.481 E0.0295
G1 X-13.550 Y-25.485 E0.0006
G1 X-13.445 Y-25.539 E0.0089
G1 X-13.437 Y-25.542 E0.0006
G1 X-11.163 Y-26.616 E0.1882
G1 X-11.155 Y-26.619 E0.0006
G1 X-11.047 Y-26.667 E0.0089
G1 X-11.039 Y-26.670 E0.0006
G1 X-10.674 Y-26.818 E0.0295
G1 X-10.666 Y-26.821 E0.0006
G1 X-10.555 Y-26.863 E0.0089
G1 X-10.547 Y-26.865 E0.0006
G1 X-8.169 Y-27.682 E0.1882
G1 X-8.161 Y-27.685 E0.0006
G1 X-8.048 Y-27.720 E0.0089
G1 X-8.040 Y-27.722 E0.0006
G1 X-7.661 Y-27.830 E0.0295
G1 X-7.653 Y-27.832 E0.0006
G1 X-7.538 Y-27.861 E0.0089
G1 X-7.530 Y-27.863 E0.0006
G1 X-5.075 Y-28.413 E0.1882
G1 X-5.067 Y-28.414 E0.0006
G1 X-4.951 Y-28.437 E0.0089
G1 X-4.943 Y-28.439 E0.0006
G1 X-4.554 Y-28.504 E0.0295
G1 X-4.546 Y-28.505 E0.0006
G1 X-4.429 Y-28.521 E0.0089
G1 X-4.420 Y-28.522 E0.0006
G1 X-1.921 Y-28.799 E0.1882
G1 X-1.912 Y-28.800 E0.0006
G1 X-1.794 Y-28.809 E0.0089
G1 X-1.786 Y-28.810 E0.0006
G1 X-1.393 Y-28.832 E0.0295
G1 X-1.384 Y-28.832 E0.0006
G1 X-1.266 Y-28.835 E0.0089
G1 X-1.258 Y-28.835 E0.0006
G1 X1.258 Y-28.835 E0.1882
G1 X1.266 Y-28.835 E0.0006
G1 X1.384 Y-28.832 E0.0089
G1 X1.393 Y-28.832 E0.0006
G1 X1.786 Y-28.810 E0.0295
G1 X1.794 Y-28.809 E0.0006
G1 X1.912 Y-28.800 E0.0089
G1 X1.921 Y-28.799 E0.0006
G1 X4.420 Y-28.522 E0.1882
G1 X4.429 Y-28.521 E0.0006
G1 X4.546 Y-28.505 E0.0089
G1 X4.554 Y-28.504 E0.0006
G1 X4.943 Y-28.439 E0.0295
G1 X4.951 Y-28.437 E0.0006
G1 X5.067 Y-28.414 E0.0089
G1 X5.075 Y-28.413 E0.0006
G1 X7.530 Y-27.863 E0.1882
G1 X7.538 Y-27.861 E0.0006
G1 X7.653 Y-27.832 E0.0089
G1 X7.661 Y-27.830 E0.0006
G1 X8.040 Y-27.722 E0.0295
G1 X8.048 Y-27.720 E0.0006
G1 X8.161 Y-27.685 E0.0089
G1 X8.169 Y-27.682 E0.0006
G1 X10.547 Y-26.865 E0.1882
G1 X10.555 Y-26.863 E0.0006
G1 X10.666 Y-26.821 E0.0089
G1 X10.674 Y-26.818 E0.0006
G1 X11.039 Y-26.670 E0.0295
G1 X11.047 Y-26.667 E0.0006
G1 X11.155 Y-26.619 E0.0089
G1 X11.163 Y-26.616 E0.0006
G1 X13.437 Y-25.542 E0.1882
G1 X13.445 Y-25.539 E0.0006
G1 X13.550 Y-25.485 E0.0089
G1 X13.558 Y-25.481 E0.0006
G1 X13.904 Y-25.294 E0.0295
G1 X13.912 Y-25.290 E0.0006
G1 X14.014 Y-25.230 E0.0089
G1 X14.021 Y-25.226 E0.0006
G1 X16.164 Y-23.909 E0.1882
G1 X16.171 Y-23.905 E0.0006
G1 X16.270 Y-23.840 E0.0089
G1 X16.277 Y-23.835 E0.0006
G1 X16.601 Y-23.611 E0.0295
G1 X16.608 Y-23.606 E0.0006
G1 X16.703 Y-23.536 E0.0089
G1 X16.710 Y-23.531 E0.0006
G1 X18.694 Y-21.986 E0.1882
G1 X18.701 Y-21.981 E0.0006
G1 X18.792 Y-21.905 E0.0089
G1 X18.799 Y-21.900 E0.0006
G1 X19.096 Y-21.641 E0.0295
G1 X19.102 Y-21.636 E0.0006
G1 X19.189 Y-21.555 E0.0089
G1 X19.195 Y-21.550 E0.0006
G1 X20.998 Y-19.796 E0.1882
G1 X21.004 Y-19.790 E0.0006
G1 X21.086 Y-19.705 E0.0089
G1 X21.092 Y-19.699 E0.0006
G1 X21.359 Y-19.409 E0.0295
G1 X21.365 Y-19.403 E0.0006
G1 X21.442 Y-19.314 E0.0089
G1 X21.448 Y-19.307 E0.0006
G1 X23.047 Y-17.366 E0.1882
G1 X23.052 Y-17.360 E0.0006
G1 X23.125 Y-17.266 E0.0089
G1 X23.130 Y-17.259 E0.0006
G1 X23.363 Y-16.942 E0.0295
G1 X23.368 Y-16.935 E0.0006
G1 X23.435 Y-16.838 E0.0089
G1 X23.440 Y-16.831 E0.0006
G1 X24.816 Y-14.725 E0.1882
G1 X24.820 Y-14.718 E0.0006
G1 X24.882 Y-14.617 E0.0089
G1 X24.886 Y-14.610 E0.0006
G1 X25.083 Y-14.269 E0.0295
G1 X25.087 Y-14.262 E0.0006
G1 X25.144 Y-14.158 E0.0089
