; G-Code generated by Simplify3D(R) Version 3.0.2
; Jan 13, 2016 at 8:34:27 AM
; Settings Summary
;   processName,Process1
;   applyToModels,NeedleMountBottom_Heated_Rev2,NeedleMountBottom_Heated_Rev2(2)
;   profileName,FlashForge Creator Pro (modified)
;   profileVersion,2015-05-01 08:00:00
;   baseProfile,
;   printMaterial,PLA
;   printQuality,Medium
;   printExtruders,Left Extruder Only
;   extruderName,Right Extruder,Left Extruder
;   extruderToolheadNumber,0,1
;   extruderDiameter,0.4,0.4
;   extruderAutoWidth,0,0
;   extruderWidth,0.4,0.4
;   extrusionMultiplier,0.9,0.9
;   extruderUseRetract,1,1
;   extruderRetractionDistance,1,1
;   extruderExtraRestartDistance,0,0
;   extruderRetractionZLift,0,0
;   extruderRetractionSpeed,1200,1200
;   extruderUseCoasting,0,0
;   extruderCoastingDistance,0.2,0.2
;   extruderUseWipe,0,0
;   extruderWipeDistance,5,5
;   primaryExtruder,1
;   layerHeight,0.2
;   topSolidLayers,3
;   bottomSolidLayers,3
;   perimeterOutlines,2
;   printPerimetersInsideOut,1
;   startPointOption,2
;   startPointOriginX,0
;   startPointOriginY,0
;   startPointOriginZ,300
;   sequentialIslands,0
;   spiralVaseMode,0
;   firstLayerHeightPercentage,90
;   firstLayerWidthPercentage,100
;   firstLayerUnderspeed,0.5
;   useRaft,1
;   raftExtruder,1
;   raftLayers,3
;   raftOffset,3
;   raftSeparationDistance,0.14
;   raftInfill,85
;   disableRaftBaseLayers,0
;   useSkirt,1
;   skirtExtruder,1
;   skirtLayers,1
;   skirtOutlines,2
;   skirtOffset,4
;   usePrimePillar,0
;   primePillarExtruder,999
;   primePillarWidth,12
;   primePillarLocation,7
;   primePillarSpeedMultiplier,1
;   useOozeShield,0
;   oozeShieldExtruder,999
;   oozeShieldOffset,2
;   oozeShieldOutlines,1
;   oozeShieldSidewallShape,1
;   oozeShieldSidewallAngle,30
;   oozeShieldSpeedMultiplier,1
;   infillExtruder,1
;   internalInfillPattern,Rectilinear
;   externalInfillPattern,Rectilinear
;   infillPercentage,25
;   outlineOverlapPercentage,20
;   infillExtrusionWidthPercentage,100
;   minInfillLength,5
;   infillLayerInterval,1
;   infillAngles,45,-45
;   overlapInfillAngles,0
;   generateSupport,0
;   supportExtruder,1
;   supportInfillPercentage,30
;   supportExtraInflation,0
;   denseSupportLayers,0
;   denseSupportInfillPercentage,70
;   supportLayerInterval,1
;   supportHorizontalPartOffset,0.3
;   supportUpperSeparationLayers,1
;   supportLowerSeparationLayers,1
;   supportType,0
;   supportGridSpacing,4
;   maxOverhangAngle,45
;   supportAngles,0
;   temperatureName,Right Extruder,Left Extruder,Heated Build Platform
;   temperatureNumber,0,1,0
;   temperatureSetpointCount,1,1,1
;   temperatureSetpointLayers,1,1,1
;   temperatureSetpointTemperatures,0,230,50
;   temperatureStabilizeAtStartup,0,0,0
;   temperatureHeatedBed,0,0,1
;   temperatureRelayBetweenLayers,0,0,0
;   temperatureRelayBetweenLoops,0,0,0
;   fanLayers,1,2
;   fanSpeeds,0,100
;   blipFanToFullPower,0
;   adjustSpeedForCooling,1
;   minSpeedLayerTime,15
;   minCoolingSpeedSlowdown,20
;   increaseFanForCooling,0
;   minFanLayerTime,45
;   maxCoolingFanSpeed,100
;   increaseFanForBridging,1
;   bridgingFanSpeed,100
;   use5D,1
;   relativeEdistances,1
;   allowEaxisZeroing,0
;   independentExtruderAxes,1
;   includeM10123,0
;   stickySupport,1
;   applyToolheadOffsets,0
;   gcodeXoffset,0
;   gcodeYoffset,0
;   gcodeZoffset,0
;   overrideMachineDefinition,1
;   machineTypeOverride,0
;   strokeXoverride,225
;   strokeYoverride,145
;   strokeZoverride,150
;   originOffsetXoverride,112.5
;   originOffsetYoverride,72.5
;   originOffsetZoverride,0
;   homeXdirOverride,1
;   homeYdirOverride,1
;   homeZdirOverride,-1
;   flipXoverride,1
;   flipYoverride,-1
;   flipZoverride,1
;   toolheadOffsets,0,0|34,0|0,0|0,0|0,0|0,0
;   overrideFirmwareConfiguration,1
;   firmwareTypeOverride,MakerBot/Sailfish Firmware
;   GPXconfigOverride,r1d
;   baudRateOverride,115200
;   overridePrinterModels,1
;   printerModelsOverride,FlashForge_CreatorPro.stl
;   startingGcode,; **** Replicator 1 dual start.gcode ****,M73 P0 ; enable build progress,G162 X Y F3000 ; home XY maximum,G161 Z F1200 ; home Z minimum,G92 Z-5 ; set Z to -5,G1 Z0 ; move Z to 0,G161 Z F100 ; home Z slowly,M132 X Y Z A B ; recall home offsets,M135 T0 ; load right extruder offsets,G1 X150 Y-70 Z30 F9000 ; move to wait position right hand side of the table,G130 X20 Y20 Z20 A20 B20 ; lower stepper Vrefs while heating,M126 S[fan_speed_pwm],M140 S[bed0_temperature] T0,M134 T0 ; stabilize bed temperature,M104 S[extruder1_temperature] T1,M133 T1 ; stabilize left extruder temperature,G130 X127 Y127 Z40 A127 B127 ; default stepper Vrefs,G92 A0 B0 ; zero extruders,G1 Z0.4 ; position nozzle,M135 T1 ; left tool,G1 X110 Y-70 E30 F300 ; move nozzle,G1 X120 Y-70 Z0.15 F1200 ; slow wipe,G1 X110 Y-70 Z0.5 F1200 ; lift,G92 A0 B0 ; zero extruders,M73 P1 ;@body (notify GPX body has started),; **** end of start.gcode ****
;   layerChangeGcode,
;   retractionGcode,
;   toolChangeGcode,
;   endingGcode,; **** Replicator 1 dual end.gcode ****,M73 P100 ; end build progress,G1 Z150 F1000 ; send Z axis to bottom of machine,M140 S0 T0 ; cool down HBP,M104 S0 T0 ; cool down right extruder,M104 S0 T1 ; cool down left extruder,M127 ; stop blower fan,G162 X Y F3000 ; home XY maximum,M18 ; disable stepper,M72 P1 ; play Ta-Da song,; **** end of end.gcode ****
;   createX3G,1
;   celebration,0
;   celebrationSong,Random Song
;   createMB5G,0
;   postProcessing,
;   defaultSpeed,3600
;   outlineUnderspeed,0.5
;   solidInfillUnderspeed,0.8
;   supportUnderspeed,0.8
;   rapidXYspeed,4200
;   rapidZspeed,1200
;   minBridgingArea,50
;   bridgingExtraInflation,0
;   bridgingExtrusionMultiplier,1
;   bridgingSpeedMultiplier,0.8
;   filamentDiameter,1.75
;   filamentPricePerKg,46
;   filamentDensity,1.25
;   useMinPrintHeight,0
;   minPrintHeight,0
;   useMaxPrintHeight,0
;   maxPrintHeight,0
;   useDiaphragm,0
;   diaphragmLayerInterval,20
;   robustSlicing,1
;   mergeAllIntoSolid,0
;   onlyRetractWhenCrossingOutline,1
;   retractBetweenLayers,1
;   useRetractionMinTravel,0
;   retractionMinTravel,3
;   retractWhileWiping,0
;   onlyWipeOutlines,1
;   avoidCrossingOutline,0
;   maxMovementDetourFactor,3
;   toolChangeRetractionDistance,12
;   toolChangeExtraRestartDistance,-0.5
;   toolChangeRetractionSpeed,600
;   allowThinWallGapFill,1
;   thinWallAllowedOverlapPercentage,10
;   horizontalSizeCompensation,0
G90
M83
; **** Replicator 1 dual start.gcode ****
M73 P0 ; enable build progress
G162 X Y F3000 ; home XY maximum
G161 Z F1200 ; home Z minimum
G92 Z-5 ; set Z to -5
G1 Z0 ; move Z to 0
G161 Z F100 ; home Z slowly
M132 X Y Z A B ; recall home offsets
M135 T0 ; load right extruder offsets
G1 X150 Y-70 Z30 F9000 ; move to wait position right hand side of the table
G130 X20 Y20 Z20 A20 B20 ; lower stepper Vrefs while heating
M127
M140 S50 T0
M134 T0 ; stabilize bed temperature
M104 S230 T1
M133 T1 ; stabilize left extruder temperature
G130 X127 Y127 Z40 A127 B127 ; default stepper Vrefs
G92 A0 B0 ; zero extruders
G1 Z0.4 ; position nozzle
M135 T1 ; left tool
G1 X110 Y-70 E30 F300 ; move nozzle
G1 X120 Y-70 Z0.15 F1200 ; slow wipe
G1 X110 Y-70 Z0.5 F1200 ; lift
G92 A0 B0 ; zero extruders
M73 P1 ;@body (notify GPX body has started)
; **** end of start.gcode ****
G1 E-1.0000 F1200
G1 Z0.450 F1200
; layer 1, Z = 0.45
M135 T1
; tool H0.500 W0.400
; skirt
G1 X0.000 Y-18.949 F4200
G1 E1.0000 F360
G1 X0.295 Y-19.307 E0.0347 F1800
G1 X0.300 Y-19.314 E0.0006
G1 X0.378 Y-19.403 E0.0089
G1 X0.384 Y-19.409 E0.0006
G1 X0.651 Y-19.699 E0.0295
G1 X0.656 Y-19.705 E0.0006
G1 X0.739 Y-19.790 E0.0089
G1 X0.745 Y-19.796 E0.0006
G1 X2.547 Y-21.550 E0.1882
G1 X2.553 Y-21.555 E0.0006
G1 X2.641 Y-21.636 E0.0089
G1 X2.647 Y-21.641 E0.0006
G1 X2.944 Y-21.900 E0.0295
G1 X2.950 Y-21.905 E0.0006
G1 X3.042 Y-21.981 E0.0089
G1 X3.048 Y-21.986 E0.0006
G1 X5.033 Y-23.531 E0.1882
G1 X5.040 Y-23.536 E0.0006
G1 X5.135 Y-23.606 E0.0089
G1 X5.142 Y-23.611 E0.0006
G1 X5.466 Y-23.835 E0.0295
G1 X5.473 Y-23.840 E0.0006
G1 X5.572 Y-23.905 E0.0089
G1 X5.579 Y-23.909 E0.0006
G1 X7.721 Y-25.226 E0.1882
G1 X7.728 Y-25.230 E0.0006
G1 X7.831 Y-25.290 E0.0089
G1 X7.838 Y-25.294 E0.0006
G1 X8.185 Y-25.481 E0.0295
G1 X8.192 Y-25.485 E0.0006
G1 X8.298 Y-25.539 E0.0089
G1 X8.305 Y-25.542 E0.0006
G1 X10.580 Y-26.616 E0.1882
G1 X10.587 Y-26.619 E0.0006
G1 X10.696 Y-26.667 E0.0089
G1 X10.704 Y-26.670 E0.0006
G1 X11.069 Y-26.818 E0.0295
G1 X11.076 Y-26.821 E0.0006
G1 X11.187 Y-26.863 E0.0089
G1 X11.195 Y-26.865 E0.0006
G1 X13.574 Y-27.682 E0.1882
G1 X13.582 Y-27.685 E0.0006
G1 X13.695 Y-27.720 E0.0089
G1 X13.703 Y-27.722 E0.0006
G1 X14.082 Y-27.830 E0.0295
G1 X14.090 Y-27.832 E0.0006
G1 X14.205 Y-27.861 E0.0089
G1 X14.213 Y-27.863 E0.0006
G1 X16.667 Y-28.413 E0.1882
G1 X16.675 Y-28.415 E0.0006
G1 X16.792 Y-28.437 E0.0089
G1 X16.800 Y-28.439 E0.0006
G1 X17.188 Y-28.504 E0.0295
G1 X17.197 Y-28.505 E0.0006
G1 X17.314 Y-28.521 E0.0089
G1 X17.322 Y-28.522 E0.0006
G1 X19.822 Y-28.799 E0.1882
G1 X19.830 Y-28.800 E0.0006
G1 X19.948 Y-28.809 E0.0089
G1 X19.957 Y-28.810 E0.0006
G1 X20.350 Y-28.832 E0.0295
G1 X20.358 Y-28.832 E0.0006
G1 X20.477 Y-28.835 E0.0089
G1 X20.485 Y-28.835 E0.0006
G1 X23.000 Y-28.835 E0.1882
G1 X23.009 Y-28.835 E0.0006
G1 X23.127 Y-28.832 E0.0089
G1 X23.135 Y-28.832 E0.0006
G1 X23.529 Y-28.810 E0.0295
G1 X23.537 Y-28.809 E0.0006
G1 X23.655 Y-28.800 E0.0089
G1 X23.663 Y-28.799 E0.0006
G1 X26.163 Y-28.522 E0.1882
G1 X26.171 Y-28.521 E0.0006
G1 X26.289 Y-28.505 E0.0089
G1 X26.297 Y-28.504 E0.0006
G1 X26.686 Y-28.439 E0.0295
G1 X26.694 Y-28.437 E0.0006
G1 X26.810 Y-28.415 E0.0089
G1 X26.818 Y-28.413 E0.0006
G1 X29.272 Y-27.863 E0.1882
G1 X29.280 Y-27.861 E0.0006
G1 X29.395 Y-27.832 E0.0089
G1 X29.403 Y-27.830 E0.0006
G1 X29.783 Y-27.722 E0.0295
G1 X29.790 Y-27.720 E0.0006
G1 X29.904 Y-27.685 E0.0089
G1 X29.911 Y-27.682 E0.0006
G1 X32.290 Y-26.865 E0.1882
G1 X32.298 Y-26.863 E0.0006
G1 X32.409 Y-26.821 E0.0089
G1 X32.417 Y-26.818 E0.0006
G1 X32.782 Y-26.670 E0.0295
G1 X32.789 Y-26.667 E0.0006
G1 X32.898 Y-26.619 E0.0089
G1 X32.905 Y-26.616 E0.0006
G1 X35.180 Y-25.542 E0.1882
G1 X35.187 Y-25.539 E0.0006
G1 X35.293 Y-25.485 E0.0089
G1 X35.300 Y-25.481 E0.0006
G1 X35.647 Y-25.294 E0.0295
G1 X35.654 Y-25.290 E0.0006
G1 X35.757 Y-25.230 E0.0089
G1 X35.764 Y-25.226 E0.0006
G1 X37.907 Y-23.909 E0.1882
G1 X37.914 Y-23.905 E0.0006
G1 X38.013 Y-23.840 E0.0089
G1 X38.020 Y-23.835 E0.0006
G1 X38.344 Y-23.611 E0.0295
G1 X38.350 Y-23.606 E0.0006
G1 X38.446 Y-23.536 E0.0089
G1 X38.452 Y-23.531 E0.0006
G1 X40.437 Y-21.986 E0.1882
G1 X40.444 Y-21.981 E0.0006
G1 X40.535 Y-21.905 E0.0089
G1 X40.541 Y-21.900 E0.0006
G1 X40.839 Y-21.641 E0.0295
G1 X40.845 Y-21.636 E0.0006
G1 X40.932 Y-21.555 E0.0089
G1 X40.938 Y-21.550 E0.0006
G1 X42.741 Y-19.796 E0.1882
G1 X42.747 Y-19.790 E0.0006
G1 X42.829 Y-19.705 E0.0089
G1 X42.835 Y-19.699 E0.0006
G1 X43.102 Y-19.409 E0.0295
G1 X43.107 Y-19.403 E0.0006
G1 X43.185 Y-19.314 E0.0089
G1 X43.191 Y-19.307 E0.0006
G1 X44.789 Y-17.366 E0.1882
G1 X44.795 Y-17.359 E0.0006
G1 X44.867 Y-17.266 E0.0089
G1 X44.872 Y-17.259 E0.0006
G1 X45.106 Y-16.942 E0.0295
G1 X45.111 Y-16.935 E0.0006
G1 X45.178 Y-16.838 E0.0089
G1 X45.183 Y-16.831 E0.0006
G1 X46.558 Y-14.725 E0.1882
G1 X46.563 Y-14.718 E0.0006
G1 X46.625 Y-14.617 E0.0089
G1 X46.629 Y-14.610 E0.0006
G1 X46.826 Y-14.269 E0.0295
G1 X46.830 Y-14.262 E0.0006
G1 X46.886 Y-14.157 E0.0089
G1 X46.890 Y-14.150 E0.0006
G1 X48.026 Y-11.906 E0.1882
G1 X48.030 Y-11.899 E0.0006
G1 X48.080 Y-11.792 E0.0089
G1 X48.084 Y-11.784 E0.0006
G1 X48.242 Y-11.423 E0.0295
G1 X48.245 Y-11.415 E0.0006
G1 X48.290 Y-11.306 E0.0089
G1 X48.293 Y-11.298 E0.0006
G1 X49.175 Y-8.943 E0.1882
G1 X49.177 Y-8.935 E0.0006
G1 X49.216 Y-8.823 E0.0089
G1 X49.218 Y-8.815 E0.0006
G1 X49.336 Y-8.439 E0.0295
G1 X49.338 Y-8.431 E0.0006
G1 X49.371 Y-8.317 E0.0089
G1 X49.373 Y-8.309 E0.0006
G1 X49.990 Y-5.871 E0.1882
G1 X49.992 Y-5.863 E0.0006
G1 X50.018 Y-5.747 E0.0089
G1 X50.020 Y-5.739 E0.0006
G1 X50.095 Y-5.352 E0.0295
G1 X50.097 Y-5.344 E0.0006
G1 X50.116 Y-5.227 E0.0089
G1 X50.118 Y-5.219 E0.0006
G1 X50.463 Y-2.728 E0.1882
G1 X50.464 Y-2.719 E0.0006
G1 X50.477 Y-2.602 E0.0089
G1 X50.478 Y-2.593 E0.0006
G1 X50.510 Y-2.201 E0.0295
G1 X50.511 Y-2.192 E0.0006
G1 X50.518 Y-2.074 E0.0089
G1 X50.518 Y-2.066 E0.0006
G1 X50.587 Y0.448 E0.1882
G1 X50.587 Y0.457 E0.0006
G1 X50.587 Y0.575 E0.0089
G1 X50.587 Y0.583 E0.0006
G1 X50.576 Y0.977 E0.0295
G1 X50.576 Y0.986 E0.0006
G1 X50.569 Y1.104 E0.0089
G1 X50.569 Y1.112 E0.0006
G1 X50.361 Y3.619 E0.1882
G1 X50.360 Y3.627 E0.0006
G1 X50.347 Y3.745 E0.0089
G1 X50.346 Y3.753 E0.0006
G1 X50.292 Y4.143 E0.0295
G1 X50.291 Y4.151 E0.0006
G1 X50.271 Y4.268 E0.0089
G1 X50.270 Y4.276 E0.0006
G1 X49.788 Y6.745 E0.1882
G1 X49.786 Y6.753 E0.0006
G1 X49.760 Y6.869 E0.0089
G1 X49.758 Y6.877 E0.0006
G1 X49.662 Y7.259 E0.0295
G1 X49.659 Y7.267 E0.0006
G1 X49.627 Y7.381 E0.0089
G1 X49.625 Y7.389 E0.0006
G1 X48.874 Y9.789 E0.1882
G1 X48.871 Y9.797 E0.0006
G1 X48.833 Y9.909 E0.0089
G1 X48.830 Y9.917 E0.0006
G1 X48.692 Y10.286 E0.0295
G1 X48.689 Y10.293 E0.0006
G1 X48.644 Y10.403 E0.0089
G1 X48.641 Y10.411 E0.0006
G1 X47.631 Y12.714 E0.1882
G1 X47.627 Y12.722 E0.0006
G1 X47.577 Y12.829 E0.0089
G1 X47.573 Y12.836 E0.0006
G1 X47.395 Y13.188 E0.0295
G1 X47.391 Y13.195 E0.0006
G1 X47.335 Y13.299 E0.0089
G1 X47.331 Y13.307 E0.0006
G1 X46.073 Y15.485 E0.1882
G1 X46.069 Y15.492 E0.0006
G1 X46.007 Y15.593 E0.0089
G1 X46.003 Y15.600 E0.0006
G1 X45.787 Y15.930 E0.0295
G1 X45.783 Y15.937 E0.0006
G1 X45.715 Y16.034 E0.0089
G1 X45.710 Y16.041 E0.0006
G1 X44.221 Y18.067 E0.1882
G1 X44.216 Y18.074 E0.0006
G1 X44.143 Y18.167 E0.0089
G1 X44.138 Y18.174 E0.0006
G1 X43.887 Y18.478 E0.0295
G1 X43.882 Y18.484 E0.0006
G1 X43.804 Y18.574 E0.0089
G1 X43.798 Y18.580 E0.0006
G1 X42.095 Y20.430 E0.1882
G1 X42.089 Y20.436 E0.0006
G1 X42.007 Y20.521 E0.0089
G1 X42.001 Y20.527 E0.0006
G1 X41.719 Y20.802 E0.0295
G1 X41.713 Y20.808 E0.0006
G1 X41.625 Y20.888 E0.0089
G1 X41.619 Y20.893 E0.0006
G1 X39.722 Y22.545 E0.1882
G1 X39.716 Y22.551 E0.0006
G1 X39.625 Y22.626 E0.0089
G1 X39.618 Y22.631 E0.0006
G1 X39.307 Y22.873 E0.0295
G1 X39.300 Y22.878 E0.0006
G1 X39.205 Y22.948 E0.0089
G1 X39.198 Y22.953 E0.0006
G1 X37.132 Y24.386 E0.1882
G1 X37.125 Y24.391 E0.0006
G1 X37.026 Y24.456 E0.0089
G1 X37.019 Y24.460 E0.0006
G1 X36.683 Y24.666 E0.0295
G1 X36.676 Y24.671 E0.0006
G1 X36.573 Y24.730 E0.0089
G1 X36.566 Y24.734 E0.0006
G1 X34.354 Y25.931 E0.1882
G1 X34.347 Y25.935 E0.0006
G1 X34.241 Y25.988 E0.0089
G1 X34.233 Y25.992 E0.0006
G1 X33.877 Y26.160 E0.0295
G1 X33.869 Y26.164 E0.0006
G1 X33.761 Y26.211 E0.0089
G1 X33.753 Y26.214 E0.0006
G1 X31.423 Y27.161 E0.1882
G1 X31.415 Y27.164 E0.0006
G1 X31.305 Y27.205 E0.0089
G1 X31.297 Y27.208 E0.0006
G1 X30.924 Y27.336 E0.0295
G1 X30.916 Y27.339 E0.0006
G1 X30.803 Y27.374 E0.0089
G1 X30.795 Y27.377 E0.0006
G1 X28.375 Y28.061 E0.1882
G1 X28.367 Y28.063 E0.0006
G1 X28.252 Y28.092 E0.0089
G1 X28.244 Y28.094 E0.0006
G1 X27.859 Y28.180 E0.0295
G1 X27.851 Y28.182 E0.0006
G1 X27.735 Y28.205 E0.0089
G1 X27.727 Y28.206 E0.0006
G1 X25.246 Y28.620 E0.1882
G1 X25.238 Y28.621 E0.0006
G1 X25.120 Y28.638 E0.0089
G1 X25.112 Y28.639 E0.0006
G1 X24.721 Y28.682 E0.0295
G1 X24.712 Y28.683 E0.0006
G1 X24.594 Y28.693 E0.0089
G1 X24.586 Y28.693 E0.0006
G1 X22.075 Y28.832 E0.1882
G1 X22.067 Y28.832 E0.0006
G1 X21.948 Y28.835 E0.0089
G1 X21.940 Y28.835 E0.0006
G1 X21.546 Y28.835 E0.0295
G1 X21.537 Y28.835 E0.0006
G1 X21.419 Y28.832 E0.0089
G1 X21.411 Y28.832 E0.0006
G1 X18.899 Y28.693 E0.1882
G1 X18.891 Y28.693 E0.0006
G1 X18.773 Y28.683 E0.0089
G1 X18.765 Y28.682 E0.0006
G1 X18.373 Y28.639 E0.0295
G1 X18.365 Y28.638 E0.0006
G1 X18.247 Y28.621 E0.0089
G1 X18.239 Y28.620 E0.0006
G1 X15.759 Y28.206 E0.1882
G1 X15.750 Y28.205 E0.0006
G1 X15.634 Y28.182 E0.0089
G1 X15.626 Y28.180 E0.0006
G1 X15.242 Y28.094 E0.0295
G1 X15.233 Y28.092 E0.0006
G1 X15.119 Y28.063 E0.0089
G1 X15.111 Y28.061 E0.0006
G1 X12.690 Y27.377 E0.1882
G1 X12.682 Y27.374 E0.0006
G1 X12.569 Y27.339 E0.0089
