; G-Code generated by Simplify3D(R) Version 3.0.2
; Jan 14, 2016 at 8:14:40 AM
; Settings Summary
;   processName,Conductive_PLA 85%
;   applyToModels,Inner,Outer-No temp,Outer2-Temp
;   profileName,White_ABS (modified)
;   profileVersion,2016-01-14 08:13:27
;   baseProfile,FlashForge Creator Pro (modified)
;   printMaterial,ABS
;   printQuality,Medium
;   printExtruders,Right Extruder Only
;   extruderName,Right Extruder,Left Extruder
;   extruderToolheadNumber,0,1
;   extruderDiameter,0.4,0.4
;   extruderAutoWidth,0,0
;   extruderWidth,0.4,0.4
;   extrusionMultiplier,1,1
;   extruderUseRetract,1,1
;   extruderRetractionDistance,1,1
;   extruderExtraRestartDistance,0,0
;   extruderRetractionZLift,0,0
;   extruderRetractionSpeed,1200,1200
;   extruderUseCoasting,0,0
;   extruderCoastingDistance,0.2,0.2
;   extruderUseWipe,0,0
;   extruderWipeDistance,5,5
;   primaryExtruder,0
;   layerHeight,0.2
;   topSolidLayers,3
;   bottomSolidLayers,3
;   perimeterOutlines,2
;   printPerimetersInsideOut,1
;   startPointOption,2
;   startPointOriginX,0
;   startPointOriginY,0
;   startPointOriginZ,300
;   sequentialIslands,0
;   spiralVaseMode,0
;   firstLayerHeightPercentage,90
;   firstLayerWidthPercentage,100
;   firstLayerUnderspeed,0.5
;   useRaft,1
;   raftExtruder,0
;   raftLayers,3
;   raftOffset,3
;   raftSeparationDistance,0.14
;   raftInfill,85
;   disableRaftBaseLayers,0
;   useSkirt,1
;   skirtExtruder,0
;   skirtLayers,1
;   skirtOutlines,2
;   skirtOffset,4
;   usePrimePillar,0
;   primePillarExtruder,999
;   primePillarWidth,12
;   primePillarLocation,7
;   primePillarSpeedMultiplier,1
;   useOozeShield,0
;   oozeShieldExtruder,999
;   oozeShieldOffset,2
;   oozeShieldOutlines,1
;   oozeShieldSidewallShape,1
;   oozeShieldSidewallAngle,30
;   oozeShieldSpeedMultiplier,1
;   infillExtruder,0
;   internalInfillPattern,Rectilinear
;   externalInfillPattern,Rectilinear
;   infillPercentage,85
;   outlineOverlapPercentage,20
;   infillExtrusionWidthPercentage,100
;   minInfillLength,5
;   infillLayerInterval,1
;   infillAngles,45,-45
;   overlapInfillAngles,0
;   generateSupport,1
;   supportExtruder,0
;   supportInfillPercentage,30
;   supportExtraInflation,0
;   denseSupportLayers,0
;   denseSupportInfillPercentage,70
;   supportLayerInterval,1
;   supportHorizontalPartOffset,0.3
;   supportUpperSeparationLayers,1
;   supportLowerSeparationLayers,1
;   supportType,0
;   supportGridSpacing,4
;   maxOverhangAngle,45
;   supportAngles,0
;   temperatureName,Right Extruder,Left Extruder,Heated Build Platform
;   temperatureNumber,0,1,0
;   temperatureSetpointCount,1,1,1
;   temperatureSetpointLayers,1,1,1
;   temperatureSetpointTemperatures,234,0,110
;   temperatureStabilizeAtStartup,0,0,0
;   temperatureHeatedBed,0,0,1
;   temperatureRelayBetweenLayers,0,0,0
;   temperatureRelayBetweenLoops,0,0,0
;   fanLayers,1
;   fanSpeeds,0
;   blipFanToFullPower,0
;   adjustSpeedForCooling,1
;   minSpeedLayerTime,15
;   minCoolingSpeedSlowdown,20
;   increaseFanForCooling,0
;   minFanLayerTime,45
;   maxCoolingFanSpeed,100
;   increaseFanForBridging,1
;   bridgingFanSpeed,100
;   use5D,1
;   relativeEdistances,1
;   allowEaxisZeroing,0
;   independentExtruderAxes,1
;   includeM10123,0
;   stickySupport,1
;   applyToolheadOffsets,0
;   gcodeXoffset,0
;   gcodeYoffset,0
;   gcodeZoffset,0
;   overrideMachineDefinition,1
;   machineTypeOverride,0
;   strokeXoverride,225
;   strokeYoverride,145
;   strokeZoverride,150
;   originOffsetXoverride,112.5
;   originOffsetYoverride,72.5
;   originOffsetZoverride,0
;   homeXdirOverride,1
;   homeYdirOverride,1
;   homeZdirOverride,-1
;   flipXoverride,1
;   flipYoverride,-1
;   flipZoverride,1
;   toolheadOffsets,0,0|34,0|0,0|0,0|0,0|0,0
;   overrideFirmwareConfiguration,1
;   firmwareTypeOverride,MakerBot/Sailfish Firmware
;   GPXconfigOverride,r1d
;   baudRateOverride,115200
;   overridePrinterModels,1
;   printerModelsOverride,FlashForge_CreatorPro.stl
;   startingGcode,; **** Replicator 1 dual start.gcode ****,M73 P0 ; enable build progress,G162 X Y F3000 ; home XY maximum,G161 Z F1200 ; home Z minimum,G92 Z-5 ; set Z to -5,G1 Z0 ; move Z to 0,G161 Z F100 ; home Z slowly,M132 X Y Z A B ; recall home offsets,M135 T0 ; load right extruder offsets,G1 X150 Y-70 Z30 F9000 ; move to wait position right hand side of the table,G130 X20 Y20 Z20 A20 B20 ; lower stepper Vrefs while heating,M126 S[fan_speed_pwm],M140 S[bed0_temperature] T0,M134 T0 ; stabilize bed temperature,M104 S[extruder0_temperature] T0,M133 T0 ; stabilize right extruder temperature,G130 X127 Y127 Z40 A127 B127 ; default stepper Vrefs,G92 A0 B0 ; zero extruders,G1 Z0.4 ; position nozzle,G1 X110 Y-70 E25 F300 ; purge nozzle,G1 X120 Y-70 Z0.15 F1200 ; slow wipe,G1 X110 Y-70 Z0.5 F1200 ; lift,G92 A0 B0 ; zero extruders,M73 P1 ;@body (notify GPX body has started),; **** end of start.gcode ****
;   layerChangeGcode,
;   retractionGcode,
;   toolChangeGcode,
;   endingGcode,; **** Replicator 1 dual end.gcode ****,M73 P100 ; end build progress,G1 Z150 F1000 ; send Z axis to bottom of machine,M140 S0 T0 ; cool down HBP,M104 S0 T0 ; cool down right extruder,M104 S0 T1 ; cool down left extruder,M127 ; stop blower fan,G162 X Y F3000 ; home XY maximum,M18 ; disable stepper,M72 P1 ; play Ta-Da song,; **** end of end.gcode ****
;   createX3G,1
;   celebration,0
;   celebrationSong,Random Song
;   createMB5G,0
;   postProcessing,
;   defaultSpeed,3600
;   outlineUnderspeed,0.5
;   solidInfillUnderspeed,0.8
;   supportUnderspeed,0.8
;   rapidXYspeed,4200
;   rapidZspeed,1200
;   minBridgingArea,50
;   bridgingExtraInflation,0
;   bridgingExtrusionMultiplier,1
;   bridgingSpeedMultiplier,0.8
;   filamentDiameter,1.75
;   filamentPricePerKg,46
;   filamentDensity,1.25
;   useMinPrintHeight,0
;   minPrintHeight,0
;   useMaxPrintHeight,0
;   maxPrintHeight,0
;   useDiaphragm,0
;   diaphragmLayerInterval,20
;   robustSlicing,1
;   mergeAllIntoSolid,0
;   onlyRetractWhenCrossingOutline,1
;   retractBetweenLayers,1
;   useRetractionMinTravel,0
;   retractionMinTravel,3
;   retractWhileWiping,0
;   onlyWipeOutlines,1
;   avoidCrossingOutline,0
;   maxMovementDetourFactor,3
;   toolChangeRetractionDistance,12
;   toolChangeExtraRestartDistance,-0.5
;   toolChangeRetractionSpeed,600
;   allowThinWallGapFill,1
;   thinWallAllowedOverlapPercentage,10
;   horizontalSizeCompensation,0
G90
M83
; **** Replicator 1 dual start.gcode ****
M73 P0 ; enable build progress
G162 X Y F3000 ; home XY maximum
G161 Z F1200 ; home Z minimum
G92 Z-5 ; set Z to -5
G1 Z0 ; move Z to 0
G161 Z F100 ; home Z slowly
M132 X Y Z A B ; recall home offsets
M135 T0 ; load right extruder offsets
G1 X150 Y-70 Z30 F9000 ; move to wait position right hand side of the table
G130 X20 Y20 Z20 A20 B20 ; lower stepper Vrefs while heating
M127
M140 S110 T0
M134 T0 ; stabilize bed temperature
M104 S234 T0
M133 T0 ; stabilize right extruder temperature
G130 X127 Y127 Z40 A127 B127 ; default stepper Vrefs
G92 A0 B0 ; zero extruders
G1 Z0.4 ; position nozzle
G1 X110 Y-70 E25 F300 ; purge nozzle
G1 X120 Y-70 Z0.15 F1200 ; slow wipe
G1 X110 Y-70 Z0.5 F1200 ; lift
G92 A0 B0 ; zero extruders
M73 P1 ;@body (notify GPX body has started)
; **** end of start.gcode ****
G1 E-1.0000 F1200
G1 Z0.450 F1200
; layer 1, Z = 0.45
M135 T0
; tool H0.500 W0.400
; skirt
G1 X4.659 Y3.703 F4200
G1 E1.0000 F360
G1 X4.502 Y3.903 E0.0212 F1800
G1 X4.497 Y3.909 E0.0007
G1 X4.424 Y3.997 E0.0095
G1 X4.419 Y4.003 E0.0007
G1 X4.168 Y4.290 E0.0317
G1 X4.163 Y4.296 E0.0007
G1 X4.085 Y4.380 E0.0095
G1 X4.080 Y4.386 E0.0007
G1 X2.918 Y5.579 E0.1384
G1 X2.912 Y5.584 E0.0007
G1 X2.830 Y5.664 E0.0095
G1 X2.825 Y5.670 E0.0007
G1 X2.545 Y5.928 E0.0317
G1 X2.539 Y5.933 E0.0007
G1 X2.453 Y6.009 E0.0095
G1 X2.447 Y6.014 E0.0007
G1 X1.165 Y7.077 E0.1385
G1 X1.159 Y7.082 E0.0007
G1 X1.068 Y7.152 E0.0095
G1 X1.062 Y7.157 E0.0007
G1 X0.756 Y7.384 E0.0317
G1 X0.750 Y7.389 E0.0007
G1 X0.656 Y7.455 E0.0095
G1 X0.650 Y7.459 E0.0007
G1 X-0.463 Y8.198 E0.1111
G1 X-0.313 Y8.560 E0.0326
G1 X-0.310 Y8.568 E0.0007
G1 X-0.267 Y8.680 E0.0100
G1 X-0.264 Y8.688 E0.0007
G1 X-0.132 Y9.067 E0.0334
G1 X-0.129 Y9.075 E0.0007
G1 X-0.093 Y9.190 E0.0100
G1 X-0.090 Y9.198 E0.0007
G1 X0.258 Y10.405 E0.1044
G1 X0.260 Y10.413 E0.0007
G1 X0.290 Y10.529 E0.0100
G1 X0.292 Y10.538 E0.0007
G1 X0.381 Y10.929 E0.0334
G1 X0.383 Y10.937 E0.0007
G1 X0.406 Y11.055 E0.0100
G1 X0.408 Y11.064 E0.0007
G1 X0.618 Y12.302 E0.1044
G1 X0.620 Y12.310 E0.0007
G1 X0.636 Y12.429 E0.0100
G1 X0.638 Y12.438 E0.0007
G1 X0.682 Y12.836 E0.0334
G1 X0.683 Y12.845 E0.0007
G1 X0.693 Y12.965 E0.0100
G1 X0.694 Y12.973 E0.0007
G1 X0.764 Y14.227 E0.1044
G1 X0.765 Y14.235 E0.0007
G1 X0.768 Y14.356 E0.0100
G1 X0.768 Y14.364 E0.0007
G1 X0.768 Y14.766 E0.0334
G1 X0.768 Y14.774 E0.0007
G1 X0.765 Y14.895 E0.0100
G1 X0.764 Y14.903 E0.0007
G1 X0.694 Y16.157 E0.1044
G1 X0.693 Y16.165 E0.0007
G1 X0.683 Y16.285 E0.0100
G1 X0.682 Y16.294 E0.0007
G1 X0.638 Y16.692 E0.0334
G1 X0.636 Y16.701 E0.0007
G1 X0.620 Y16.820 E0.0100
G1 X0.618 Y16.828 E0.0007
G1 X0.408 Y18.066 E0.1044
G1 X0.406 Y18.075 E0.0007
G1 X0.383 Y18.193 E0.0100
G1 X0.381 Y18.201 E0.0007
G1 X0.292 Y18.592 E0.0334
G1 X0.290 Y18.601 E0.0007
G1 X0.260 Y18.717 E0.0100
G1 X0.258 Y18.725 E0.0007
G1 X-0.090 Y19.932 E0.1044
G1 X-0.093 Y19.940 E0.0007
G1 X-0.129 Y20.055 E0.0100
G1 X-0.132 Y20.063 E0.0007
G1 X-0.264 Y20.442 E0.0334
G1 X-0.267 Y20.450 E0.0007
G1 X-0.310 Y20.562 E0.0100
G1 X-0.313 Y20.570 E0.0007
G1 X-0.794 Y21.730 E0.1044
G1 X-0.797 Y21.738 E0.0007
G1 X-0.847 Y21.848 E0.0100
G1 X-0.850 Y21.856 E0.0007
G1 X-1.024 Y22.217 E0.0334
G1 X-1.028 Y22.225 E0.0007
G1 X-1.083 Y22.332 E0.0100
G1 X-1.087 Y22.339 E0.0007
G1 X-1.695 Y23.438 E0.1044
G1 X-1.699 Y23.446 E0.0007
G1 X-1.760 Y23.549 E0.0100
G1 X-1.764 Y23.557 E0.0007
G1 X-1.978 Y23.896 E0.0334
G1 X-1.982 Y23.903 E0.0007
G1 X-2.049 Y24.004 E0.0100
G1 X-2.054 Y24.011 E0.0007
G1 X-2.781 Y25.035 E0.1044
G1 X-2.786 Y25.042 E0.0007
G1 X-2.858 Y25.138 E0.0100
G1 X-2.864 Y25.145 E0.0007
G1 X-3.114 Y25.458 E0.0334
G1 X-3.119 Y25.465 E0.0007
G1 X-3.197 Y25.557 E0.0100
G1 X-3.202 Y25.563 E0.0007
G1 X-4.039 Y26.500 E0.1044
G1 X-4.045 Y26.506 E0.0007
G1 X-4.128 Y26.594 E0.0100
G1 X-4.134 Y26.600 E0.0007
G1 X-4.417 Y26.883 E0.0334
G1 X-4.423 Y26.889 E0.0007
G1 X-4.511 Y26.972 E0.0100
G1 X-4.517 Y26.978 E0.0007
G1 X-5.453 Y27.814 E0.1044
G1 X-5.460 Y27.820 E0.0007
G1 X-5.552 Y27.898 E0.0100
G1 X-5.558 Y27.903 E0.0007
G1 X-5.872 Y28.153 E0.0334
G1 X-5.879 Y28.158 E0.0007
G1 X-5.975 Y28.231 E0.0100
G1 X-5.982 Y28.236 E0.0007
G1 X-7.006 Y28.963 E0.1044
G1 X-7.013 Y28.967 E0.0007
G1 X-7.113 Y29.034 E0.0100
G1 X-7.120 Y29.039 E0.0007
G1 X-7.460 Y29.252 E0.0334
G1 X-7.467 Y29.257 E0.0007
G1 X-7.571 Y29.318 E0.0100
G1 X-7.578 Y29.322 E0.0007
G1 X-8.677 Y29.930 E0.1044
G1 X-8.685 Y29.933 E0.0007
G1 X-8.792 Y29.989 E0.0100
G1 X-8.799 Y29.993 E0.0007
G1 X-9.161 Y30.167 E0.0334
G1 X-9.169 Y30.170 E0.0007
G1 X-9.279 Y30.220 E0.0100
G1 X-9.286 Y30.223 E0.0007
G1 X-10.447 Y30.703 E0.1044
G1 X-10.454 Y30.706 E0.0007
G1 X-10.567 Y30.750 E0.0100
G1 X-10.575 Y30.752 E0.0007
G1 X-10.954 Y30.885 E0.0334
G1 X-10.962 Y30.888 E0.0007
G1 X-11.077 Y30.924 E0.0100
G1 X-11.085 Y30.927 E0.0007
G1 X-12.291 Y31.274 E0.1044
G1 X-12.299 Y31.276 E0.0007
G1 X-12.416 Y31.307 E0.0100
G1 X-12.424 Y31.309 E0.0007
G1 X-12.815 Y31.398 E0.0334
G1 X-12.824 Y31.400 E0.0007
G1 X-12.942 Y31.423 E0.0100
G1 X-12.950 Y31.425 E0.0007
G1 X-14.188 Y31.635 E0.1044
G1 X-14.197 Y31.636 E0.0007
G1 X-14.316 Y31.653 E0.0100
G1 X-14.324 Y31.654 E0.0007
G1 X-14.723 Y31.699 E0.0334
G1 X-14.731 Y31.700 E0.0007
G1 X-14.852 Y31.710 E0.0100
G1 X-14.860 Y31.711 E0.0007
G1 X-16.114 Y31.781 E0.1044
G1 X-16.122 Y31.781 E0.0007
G1 X-16.243 Y31.785 E0.0100
G1 X-16.251 Y31.785 E0.0007
G1 X-16.652 Y31.785 E0.0334
G1 X-16.661 Y31.785 E0.0007
G1 X-16.781 Y31.781 E0.0100
G1 X-16.790 Y31.781 E0.0007
G1 X-18.043 Y31.711 E0.1044
G1 X-18.052 Y31.710 E0.0007
G1 X-18.172 Y31.700 E0.0100
G1 X-18.180 Y31.699 E0.0007
G1 X-18.579 Y31.654 E0.0334
G1 X-18.588 Y31.653 E0.0007
G1 X-18.707 Y31.636 E0.0100
G1 X-18.715 Y31.635 E0.0007
G1 X-19.953 Y31.425 E0.1044
G1 X-19.961 Y31.423 E0.0007
G1 X-20.080 Y31.400 E0.0100
G1 X-20.088 Y31.398 E0.0007
G1 X-20.479 Y31.309 E0.0334
G1 X-20.487 Y31.307 E0.0007
G1 X-20.604 Y31.276 E0.0100
G1 X-20.612 Y31.274 E0.0007
G1 X-21.819 Y30.927 E0.1044
G1 X-21.827 Y30.924 E0.0007
G1 X-21.942 Y30.888 E0.0100
G1 X-21.950 Y30.885 E0.0007
G1 X-22.329 Y30.752 E0.0334
G1 X-22.336 Y30.750 E0.0007
G1 X-22.449 Y30.707 E0.0100
G1 X-22.457 Y30.703 E0.0007
G1 X-23.617 Y30.223 E0.1044
G1 X-23.625 Y30.220 E0.0007
G1 X-23.735 Y30.170 E0.0100
G1 X-23.742 Y30.167 E0.0007
G1 X-24.104 Y29.993 E0.0334
G1 X-24.111 Y29.989 E0.0007
G1 X-24.219 Y29.934 E0.0100
G1 X-24.226 Y29.930 E0.0007
G1 X-25.325 Y29.322 E0.1044
G1 X-25.332 Y29.318 E0.0007
G1 X-25.436 Y29.257 E0.0100
G1 X-25.444 Y29.252 E0.0007
G1 X-25.783 Y29.039 E0.0334
G1 X-25.790 Y29.034 E0.0007
G1 X-25.891 Y28.967 E0.0100
G1 X-25.898 Y28.962 E0.0007
G1 X-26.922 Y28.236 E0.1044
G1 X-26.928 Y28.231 E0.0007
G1 X-27.025 Y28.158 E0.0100
G1 X-27.031 Y28.153 E0.0007
G1 X-27.345 Y27.903 E0.0334
G1 X-27.352 Y27.898 E0.0007
G1 X-27.444 Y27.820 E0.0100
G1 X-27.450 Y27.814 E0.0007
G1 X-28.386 Y26.978 E0.1044
G1 X-28.393 Y26.972 E0.0007
G1 X-28.480 Y26.889 E0.0100
G1 X-28.486 Y26.883 E0.0007
G1 X-28.770 Y26.600 E0.0334
G1 X-28.776 Y26.594 E0.0007
G1 X-28.859 Y26.506 E0.0100
G1 X-28.864 Y26.500 E0.0007
G1 X-29.701 Y25.563 E0.1044
G1 X-29.707 Y25.557 E0.0007
G1 X-29.784 Y25.465 E0.0100
G1 X-29.790 Y25.458 E0.0007
G1 X-30.040 Y25.145 E0.0334
G1 X-30.045 Y25.138 E0.0007
G1 X-30.118 Y25.042 E0.0100
G1 X-30.123 Y25.035 E0.0007
G1 X-30.849 Y24.011 E0.1044
G1 X-30.854 Y24.004 E0.0007
G1 X-30.921 Y23.903 E0.0100
G1 X-30.926 Y23.896 E0.0007
G1 X-31.139 Y23.557 E0.0334
G1 X-31.143 Y23.549 E0.0007
G1 X-31.205 Y23.446 E0.0100
G1 X-31.209 Y23.438 E0.0007
G1 X-31.816 Y22.339 E0.1044
G1 X-31.820 Y22.332 E0.0007
G1 X-31.876 Y22.225 E0.0100
G1 X-31.879 Y22.217 E0.0007
G1 X-32.053 Y21.856 E0.0334
G1 X-32.057 Y21.848 E0.0007
G1 X-32.106 Y21.738 E0.0100
G1 X-32.110 Y21.730 E0.0007
G1 X-32.590 Y20.570 E0.1044
G1 X-32.593 Y20.562 E0.0007
G1 X-32.636 Y20.450 E0.0100
G1 X-32.639 Y20.442 E0.0007
G1 X-32.772 Y20.063 E0.0334
G1 X-32.774 Y20.055 E0.0007
G1 X-32.811 Y19.940 E0.0100
G1 X-32.813 Y19.932 E0.0007
G1 X-33.161 Y18.725 E0.1044
G1 X-33.163 Y18.717 E0.0007
G1 X-33.193 Y18.601 E0.0100
G1 X-33.195 Y18.592 E0.0007
G1 X-33.285 Y18.201 E0.0334
G1 X-33.286 Y18.193 E0.0007
G1 X-33.310 Y18.075 E0.0100
G1 X-33.311 Y18.066 E0.0007
G1 X-33.522 Y16.828 E0.1044
G1 X-33.523 Y16.820 E0.0007
G1 X-33.540 Y16.701 E0.0100
G1 X-33.541 Y16.692 E0.0007
G1 X-33.586 Y16.294 E0.0334
G1 X-33.587 Y16.285 E0.0007
G1 X-33.597 Y16.165 E0.0100
G1 X-33.597 Y16.157 E0.0007
G1 X-33.668 Y14.903 E0.1044
G1 X-33.668 Y14.895 E0.0007
G1 X-33.672 Y14.774 E0.0100
G1 X-33.672 Y14.766 E0.0007
G1 X-33.672 Y14.364 E0.0334
G1 X-33.672 Y14.356 E0.0007
G1 X-33.668 Y14.235 E0.0100
G1 X-33.668 Y14.227 E0.0007
G1 X-33.597 Y12.973 E0.1044
G1 X-33.597 Y12.965 E0.0007
G1 X-33.587 Y12.845 E0.0100
G1 X-33.586 Y12.836 E0.0007
G1 X-33.541 Y12.438 E0.0334
G1 X-33.540 Y12.429 E0.0007
G1 X-33.523 Y12.310 E0.0100
G1 X-33.522 Y12.301 E0.0007
G1 X-33.311 Y11.064 E0.1044
G1 X-33.310 Y11.055 E0.0007
G1 X-33.286 Y10.937 E0.0100
G1 X-33.285 Y10.929 E0.0007
G1 X-33.195 Y10.538 E0.0334
G1 X-33.193 Y10.529 E0.0007
G1 X-33.163 Y10.413 E0.0100
G1 X-33.161 Y10.405 E0.0007
G1 X-32.813 Y9.198 E0.1044
G1 X-32.811 Y9.190 E0.0007
G1 X-32.774 Y9.075 E0.0100
G1 X-32.772 Y9.067 E0.0007
G1 X-32.639 Y8.688 E0.0334
G1 X-32.636 Y8.680 E0.0007
G1 X-32.593 Y8.568 E0.0100
G1 X-32.590 Y8.560 E0.0007
G1 X-32.110 Y7.400 E0.1044
G1 X-32.106 Y7.392 E0.0007
G1 X-32.057 Y7.282 E0.0100
G1 X-32.054 Y7.274 E0.0007
G1 X-31.879 Y6.913 E0.0334
G1 X-31.876 Y6.905 E0.0007
G1 X-31.820 Y6.798 E0.0100
G1 X-31.816 Y6.791 E0.0007
G1 X-31.209 Y5.692 E0.1044
G1 X-31.205 Y5.684 E0.0007
G1 X-31.143 Y5.580 E0.0100
G1 X-31.139 Y5.573 E0.0007
G1 X-30.926 Y5.234 E0.0334
